%
O0001(MME 4459 TOOLING.1.1)
N1(*********************************)
N3(* MACHINE TOOL   : TORMACH PCNC SERIES II MILL)
N5(* CUSTOMER       : MME)
N7(* COMENT         : )
N9(* JOB DECRIPTION : MME 4459 TOOLING.1.1)
N11(* JOB MATERIAL   : UMS-PLASTICS)
N13(* PART NAME      : PROJECT 2 SIDEB)
N15(* SEQUENCE       : MME 4459 TOOLING.1.1)
N17(* PROGRAMMED BY  : STUDENT)
N19(* DATE           : 03/07/24)
N21(* TIME           : 11:40:16)
N23(* TOTAL RUN TIME : 13.891    MIN.)
N25(*********************************)
N27 G0 G90 G17 G20 G94 G40 G49 G80 
N29 G91 G28 Z0
N31 M05
N33 G91 G28 Z0 
N35 G28 X0 Y0
N37 T01 M06 (1/4 ENDMILL  3FLT SH  .35 FL  1.4 TL)
N39 G0 G90 G56 X-0.293 Y-1.598 M3 S3500
N41 G43 H01 Z0.92 
N43 Z0.2944
N45 G1 Z0.255 F4.0
N47 X-0.1261 Y-1.5702 F8.0
N49 X-0.1262 Y-1.5689
N51 G2 X-0.13 Y-1.5 R0.63
N53 G1 Y-0.5
N55 G2 X0.5 Y0.13 R0.63
N57 G1 X1.5
N59 G2 X2.13 Y-0.5 R0.63
N61 G1 Y-1.5038
N63 G2 X1.5038 Y-2.13 R0.63
N65 G1 X0.5
N67 G2 X-0.1261 Y-1.5702 R0.63
N69 G1 X-0.1301 Y-1.5706
N71 G0 Z0.92
N73 X-0.247 Y-1.7362
N75 Z0.62
N77 G1 Z0.5913 F4.0
N79 X-0.1057 Y-1.5947 Z0.4644 F8.0
N81 G3 X-0.0472 Y-1.4532 Z0.42 I-0.1415 J0.1414
N83 G1 X-0.0478 Y-0.5153
N85 X-0.0433 Y-0.4318
N87 X-0.0323 Y-0.3744
N89 X-0.0152 Y-0.3181
N91 X0.0076 Y-0.2639
N93 X0.036 Y-0.2124
N95 X0.0695 Y-0.1642
N97 X0.108 Y-0.1197
N99 X0.1509 Y-0.0794
N101 X0.1976 Y-0.0441
N103 X0.2524 Y-0.0125
N105 X0.3095 Y0.0124
N107 X0.369 Y0.0307
N109 X0.4302 Y0.0423
N111 X0.4937 Y0.0471
N113 X1.493 Y0.0478
N115 X1.5539 Y0.0447
N117 X1.6101 Y0.0359
N119 X1.6672 Y0.0204
N121 X1.7225 Y-0.001
N123 X1.7751 Y-0.0282
N125 X1.8246 Y-0.0608
N127 X1.8703 Y-0.0984
N129 X1.9119 Y-0.1407
N131 X1.9487 Y-0.1871
N133 X1.9802 Y-0.2369
N135 X2.0006 Y-0.2813
N137 X2.0183 Y-0.3276
N139 X2.0328 Y-0.3744
N141 X2.0432 Y-0.4315
N143 X2.0476 Y-0.4936
N145 Y-1.4927
N147 X2.0431 Y-1.5707
N149 X2.0316 Y-1.6325
N151 X2.0134 Y-1.6908
N153 X1.9844 Y-1.7559
N155 X1.9606 Y-1.7941
N157 X1.9343 Y-1.8316
N159 X1.9064 Y-1.8672
N161 X1.8671 Y-1.9065
N163 X1.8317 Y-1.9344
N165 X1.7942 Y-1.9607
N167 X1.756 Y-1.9844
N169 X1.6908 Y-2.0134
N171 X1.6325 Y-2.0316
N173 X1.5743 Y-2.0425
N175 X1.5144 Y-2.0469
N177 X0.4929 Y-2.0476
N179 X0.4663 Y-2.0459
N181 X0.4394 Y-2.0434
N183 X0.4135 Y-2.0403
N185 X0.3517 Y-2.026
N187 X0.2919 Y-2.0051
N189 X0.2347 Y-1.9778
N191 X0.1809 Y-1.9446
N193 X0.1375 Y-1.9099
N195 X0.0983 Y-1.8715
N197 X0.063 Y-1.8293
N199 X0.0322 Y-1.7838
N201 X0.0056 Y-1.7347
N203 X-0.0132 Y-1.6891
N205 X-0.0279 Y-1.6418
N207 X-0.0386 Y-1.593
N209 X-0.0429 Y-1.5668
N211 X-0.0457 Y-1.5414
N213 X-0.0471 Y-1.5158
N215 X-0.0467 Y-1.47
N217 X-0.0454 Y-1.4644
N219 X-0.0432 Y-1.4591
N221 X-0.0401 Y-1.4542
N223 X-0.0364 Y-1.4498
N225 X-0.032 Y-1.4461
N227 X-0.0271 Y-1.4431
N229 X0.0126 Y-1.4227
N231 X0.017 Y-1.419
N233 X0.0207 Y-1.4147
N235 X0.0238 Y-1.4098
N237 X0.026 Y-1.4045
N239 X0.0273 Y-1.3989
N241 X0.0278 Y-1.3931
N243 X0.0272 Y-0.5173
N245 X0.0313 Y-0.441
N247 X0.0407 Y-0.3924
N249 X0.0554 Y-0.3436
N251 X0.0752 Y-0.2967
N253 X0.0998 Y-0.252
N255 X0.1289 Y-0.2102
N257 X0.1622 Y-0.1717
N259 X0.1993 Y-0.1368
N261 X0.2391 Y-0.1067
N263 X0.2862 Y-0.0796
N265 X0.3356 Y-0.058
N267 X0.3871 Y-0.0422
N269 X0.4401 Y-0.0321
N271 X0.4966 Y-0.0279
N273 X1.491 Y-0.0272
N275 X1.5462 Y-0.03
N277 X1.5945 Y-0.0376
N279 X1.6438 Y-0.0509
N281 X1.6916 Y-0.0695
N283 X1.7372 Y-0.093
N285 X1.78 Y-0.1213
N287 X1.8196 Y-0.1538
N289 X1.8556 Y-0.1904
N291 X1.8875 Y-0.2306
N293 X1.9142 Y-0.2728
N295 X1.9314 Y-0.3103
N297 X1.9474 Y-0.3521
N299 X1.9598 Y-0.3923
N301 X1.9687 Y-0.4409
N303 X1.9726 Y-0.4963
N305 Y-1.4906
N307 X1.9685 Y-1.5617
N309 X1.9587 Y-1.6144
N311 X1.9431 Y-1.6643
N313 X1.918 Y-1.7207
N315 X1.898 Y-1.7527
N317 X1.8741 Y-1.7869
N319 X1.8501 Y-1.8173
N321 X1.8172 Y-1.8504
N323 X1.787 Y-1.8742
N325 X1.7528 Y-1.898
N327 X1.7208 Y-1.9179
N329 X1.6643 Y-1.9431
N331 X1.6143 Y-1.9587
N333 X1.5646 Y-1.968
N335 X1.5117 Y-1.9719
N337 X0.4952 Y-1.9726
N339 X0.4721 Y-1.9711
N341 X0.4473 Y-1.9688
N343 X0.4265 Y-1.9663
N345 X0.3726 Y-1.9539
N347 X0.3205 Y-1.9356
N349 X0.2706 Y-1.9119
N351 X0.2242 Y-1.8832
N353 X0.1873 Y-1.8537
N355 X0.1534 Y-1.8205
N357 X0.123 Y-1.7841
N359 X0.0964 Y-1.7448
N361 X0.0734 Y-1.7025
N363 X0.0575 Y-1.6636
N365 X0.0447 Y-1.6226
N367 X0.0351 Y-1.5789
N369 X0.0314 Y-1.5566
N371 X0.0291 Y-1.5351
N373 X0.0279 Y-1.5137
N375 X0.0283 Y-1.4324
N377 X0.0296 Y-1.4268
N379 X0.0318 Y-1.4215
N381 X0.0348 Y-1.4166
N383 X0.0386 Y-1.4123
N385 X0.043 Y-1.4085
N387 X0.0479 Y-1.4056
N389 X0.0876 Y-1.3852
N391 X0.092 Y-1.3815
N393 X0.0957 Y-1.3771
N395 X0.0987 Y-1.3722
N397 X0.101 Y-1.3669
N399 X0.1023 Y-1.3613
N401 X0.1028 Y-1.3556
N403 X0.1022 Y-0.5193
N405 X0.106 Y-0.4501
N407 X0.1136 Y-0.4103
N409 X0.1261 Y-0.3691
N411 X0.1428 Y-0.3294
N413 X0.1636 Y-0.2917
N415 X0.1882 Y-0.2563
N417 X0.2163 Y-0.2237
N419 X0.2478 Y-0.1943
N421 X0.2807 Y-0.1693
N423 X0.32 Y-0.1467
N425 X0.3617 Y-0.1285
N427 X0.4052 Y-0.1151
N429 X0.4499 Y-0.1066
N431 X0.4995 Y-0.1029
N433 X1.4891 Y-0.1022
N435 X1.5384 Y-0.1047
N437 X1.5788 Y-0.111
N439 X1.6203 Y-0.1223
N441 X1.6607 Y-0.138
N443 X1.6992 Y-0.1579
N445 X1.7354 Y-0.1817
N447 X1.7689 Y-0.2093
N449 X1.7993 Y-0.2402
N451 X1.8263 Y-0.2741
N453 X1.8481 Y-0.3086
N455 X1.8622 Y-0.3393
N457 X1.8764 Y-0.3766
N459 X1.8868 Y-0.4102
N461 X1.8942 Y-0.4503
N463 X1.8976 Y-0.4989
N465 Y-1.4884
N467 X1.8939 Y-1.5526
N469 X1.8858 Y-1.5963
N471 X1.8728 Y-1.6378
N473 X1.8516 Y-1.6854
N475 X1.8355 Y-1.7113
N477 X1.8138 Y-1.7421
N479 X1.7939 Y-1.7675
N481 X1.7673 Y-1.7942
N483 X1.7422 Y-1.8139
N485 X1.7115 Y-1.8354
N487 X1.6856 Y-1.8515
N489 X1.6378 Y-1.8728
N491 X1.5962 Y-1.8858
N493 X1.5549 Y-1.8935
N495 X1.5089 Y-1.8969
N497 X0.4976 Y-1.8976
N499 X0.4779 Y-1.8963
N501 X0.4395 Y-1.8924
N503 X0.3935 Y-1.8817
N505 X0.3491 Y-1.8662
N507 X0.3065 Y-1.8459
N509 X0.2675 Y-1.8218
N511 X0.2371 Y-1.7975
N513 X0.2086 Y-1.7695
N515 X0.183 Y-1.7389
N517 X0.1605 Y-1.7058
N519 X0.1413 Y-1.6703
N521 X0.1281 Y-1.6381
N523 X0.1172 Y-1.6034
N525 X0.1088 Y-1.5648
N527 X0.1058 Y-1.5464
N529 X0.1038 Y-1.5289
N531 X0.1029 Y-1.5115
N533 X0.1032 Y-1.3949
N535 X0.1046 Y-1.3893
N537 X0.1068 Y-1.384
N539 X0.1098 Y-1.3791
N541 X0.1136 Y-1.3747
N543 X0.118 Y-1.371
N545 X0.1229 Y-1.368
N547 X0.1625 Y-1.3476
N549 X0.1669 Y-1.3439
N551 X0.1707 Y-1.3396
N553 X0.1737 Y-1.3347
N555 X0.1759 Y-1.3294
N557 X0.1773 Y-1.3238
N559 X0.1777 Y-1.318
N561 X0.1772 Y-0.5213
N563 X0.1806 Y-0.4592
N565 X0.1865 Y-0.4283
N567 X0.1967 Y-0.3946
N569 X0.2104 Y-0.3621
N571 X0.2274 Y-0.3313
N573 X0.2475 Y-0.3024
N575 X0.2705 Y-0.2757
N577 X0.2962 Y-0.2517
N579 X0.3222 Y-0.2319
N581 X0.3538 Y-0.2137
N583 X0.3878 Y-0.1989
N585 X0.4233 Y-0.188
N587 X0.4597 Y-0.1811
N589 X0.5023 Y-0.1779
N591 X1.4872 Y-0.1772
N593 X1.5307 Y-0.1794
N595 X1.5632 Y-0.1845
N597 X1.5968 Y-0.1936
N599 X1.6298 Y-0.2065
N601 X1.6613 Y-0.2227
N603 X1.6909 Y-0.2422
N605 X1.7182 Y-0.2647
N607 X1.743 Y-0.2899
N609 X1.765 Y-0.3176
N611 X1.7821 Y-0.3445
N613 X1.793 Y-0.3684
N615 X1.8055 Y-0.401
N617 X1.8138 Y-0.428
N619 X1.8196 Y-0.4598
N621 X1.8226 Y-0.5016
N623 Y-1.4862
N625 X1.8193 Y-1.5436
N627 X1.8128 Y-1.5782
N629 X1.8025 Y-1.6112
N631 X1.7852 Y-1.6502
N633 X1.7729 Y-1.6699
N635 X1.7536 Y-1.6974
N637 X1.7377 Y-1.7177
N639 X1.7174 Y-1.7381
N641 X1.6975 Y-1.7537
N643 X1.6702 Y-1.7728
N645 X1.6504 Y-1.7851
N647 X1.6112 Y-1.8025
N649 X1.578 Y-1.8129
N651 X1.5453 Y-1.8191
N653 X1.5062 Y-1.8219
N655 X0.4999 Y-1.8226
N657 X0.4837 Y-1.8216
N659 X0.4524 Y-1.8184
N661 X0.4144 Y-1.8096
N663 X0.3776 Y-1.7967
N665 X0.3425 Y-1.78
N667 X0.3108 Y-1.7604
N669 X0.2869 Y-1.7413
N671 X0.2637 Y-1.7186
N673 X0.2429 Y-1.6937
N675 X0.2247 Y-1.6668
N677 X0.2091 Y-1.6381
N679 X0.1987 Y-1.6127
N681 X0.1898 Y-1.5842
N683 X0.1825 Y-1.5507
N685 X0.1801 Y-1.5362
N687 X0.1786 Y-1.5226
N689 X0.1779 Y-1.5093
N691 X0.1782 Y-1.3573
N693 X0.1796 Y-1.3517
N695 X0.1818 Y-1.3464
N697 X0.1848 Y-1.3415
N699 X0.1885 Y-1.3372
N701 X0.1929 Y-1.3334
N703 X0.1979 Y-1.3305
N705 X0.2375 Y-1.3101
N707 X0.2419 Y-1.3064
N709 X0.2457 Y-1.302
N711 X0.2487 Y-1.2971
N713 X0.2509 Y-1.2918
N715 X0.2523 Y-1.2862
N717 X0.2527 Y-1.2805
N719 X0.2522 Y-0.5234
N721 X0.2552 Y-0.4684
N723 X0.2594 Y-0.4462
N725 X0.2673 Y-0.4201
N727 X0.278 Y-0.3949
N729 X0.2912 Y-0.3709
N731 X0.3068 Y-0.3485
N733 X0.3247 Y-0.3278
N735 X0.3446 Y-0.3091
N737 X0.3637 Y-0.2946
N739 X0.3876 Y-0.2808
N741 X0.4139 Y-0.2693
N743 X0.4414 Y-0.2609
N745 X0.4696 Y-0.2555
N747 X0.5052 Y-0.2529
N749 X1.4853 Y-0.2522
N751 X1.5229 Y-0.2541
N753 X1.5475 Y-0.258
N755 X1.5734 Y-0.265
N757 X1.599 Y-0.2749
N759 X1.6234 Y-0.2875
N761 X1.6463 Y-0.3026
N763 X1.6675 Y-0.3201
N765 X1.6868 Y-0.3396
N767 X1.7038 Y-0.3612
N769 X1.716 Y-0.3804
N771 X1.7238 Y-0.3974
N773 X1.7346 Y-0.4255
N775 X1.7409 Y-0.4459
N777 X1.7451 Y-0.4692
N779 X1.7476 Y-0.5042
N781 Y-1.4841
N783 X1.7447 Y-1.5345
N785 X1.7399 Y-1.5601
N787 X1.7322 Y-1.5847
N789 X1.7188 Y-1.6149
N791 X1.7103 Y-1.6285
N793 X1.6934 Y-1.6527
N795 X1.6814 Y-1.6679
N797 X1.6674 Y-1.6819
N799 X1.6528 Y-1.6934
N801 X1.6289 Y-1.7102
N803 X1.6152 Y-1.7187
N805 X1.5847 Y-1.7322
N807 X1.5599 Y-1.74
N809 X1.5356 Y-1.7446
N811 X1.5034 Y-1.7469
N813 X0.5023 Y-1.7476
N815 X0.4895 Y-1.7468
N817 X0.4654 Y-1.7444
N819 X0.4353 Y-1.7374
N821 X0.4062 Y-1.7273
N823 X0.3784 Y-1.714
N825 X0.3541 Y-1.699
N827 X0.3367 Y-1.6851
N829 X0.3189 Y-1.6676
N831 X0.3029 Y-1.6485
N833 X0.2889 Y-1.6278
N835 X0.277 Y-1.6059
N837 X0.2693 Y-1.5872
N839 X0.2624 Y-1.565
N841 X0.2562 Y-1.5366
N843 X0.2544 Y-1.5259
N845 X0.2529 Y-1.5072
N847 X0.2532 Y-1.3198
N849 X0.2545 Y-1.3142
N851 X0.2567 Y-1.3089
N853 X0.2598 Y-1.304
N855 X0.2635 Y-1.2996
N857 X0.2679 Y-1.2959
N859 X0.2728 Y-1.2929
N861 X0.3125 Y-1.2725
N863 X0.3169 Y-1.2688
N865 X0.3206 Y-1.2645
N867 X0.3237 Y-1.2596
N869 X0.3259 Y-1.2543
N871 X0.3272 Y-1.2487
N873 X0.3277 Y-1.2429
N875 X0.3272 Y-0.5254
N877 X0.3298 Y-0.4775
N879 X0.3323 Y-0.4642
N881 X0.338 Y-0.4456
N883 X0.3456 Y-0.4276
N885 X0.355 Y-0.4105
N887 X0.3661 Y-0.3945
N889 X0.3788 Y-0.3798
N891 X0.3931 Y-0.3665
N893 X0.4053 Y-0.3572
N895 X0.4214 Y-0.3479
N897 X0.44 Y-0.3398
N899 X0.4594 Y-0.3338
N901 X0.4794 Y-0.33
N903 X0.508 Y-0.3279
N905 X1.4833 Y-0.3272
N907 X1.5152 Y-0.3288
N909 X1.5319 Y-0.3314
N911 X1.5499 Y-0.3363
N913 X1.5681 Y-0.3434
N915 X1.5854 Y-0.3523
N917 X1.6017 Y-0.3631
N919 X1.6168 Y-0.3755
N921 X1.6305 Y-0.3894
N923 X1.6426 Y-0.4047
N925 X1.6499 Y-0.4162
N927 X1.6546 Y-0.4265
N929 X1.6636 Y-0.45
N931 X1.6679 Y-0.4638
N933 X1.6706 Y-0.4786
N935 X1.6726 Y-0.5069
N937 Y-1.4819
N939 X1.6701 Y-1.5255
N941 X1.667 Y-1.542
N943 X1.662 Y-1.5582
N945 X1.6524 Y-1.5797
N947 X1.6477 Y-1.5871
N949 X1.6332 Y-1.6079
N951 X1.6252 Y-1.618
N953 X1.6175 Y-1.6258
N955 X1.608 Y-1.6332
N957 X1.58 Y-1.6522
N959 X1.5582 Y-1.662
N961 X1.5417 Y-1.6671
N963 X1.5259 Y-1.6701
N965 X1.5006 Y-1.6719
N967 X0.5046 Y-1.6726
N969 X0.4791 Y-1.6705
N971 X0.4562 Y-1.6653
N973 X0.4348 Y-1.6578
N975 X0.4143 Y-1.648
N977 X0.3974 Y-1.6376
N979 X0.3865 Y-1.6289
N981 X0.374 Y-1.6167
N983 X0.3628 Y-1.6033
N985 X0.353 Y-1.5888
N987 X0.3449 Y-1.5737
N989 X0.3399 Y-1.5617
N991 X0.335 Y-1.5458
N993 X0.3288 Y-1.5157
N995 X0.3279 Y-1.505
N997 X0.3282 Y-1.2822
N999 X0.3295 Y-1.2766
N1001 X0.3317 Y-1.2713
N1003 X0.3347 Y-1.2664
N1005 X0.3385 Y-1.262
N1007 X0.3429 Y-1.2583
N1009 X0.3478 Y-1.2554
N1011 X0.3875 Y-1.235
N1013 X0.3919 Y-1.2313
N1015 X0.3956 Y-1.2269
N1017 X0.3986 Y-1.222
N1019 X0.4008 Y-1.2167
N1021 X0.4022 Y-1.2111
N1023 X0.4026 Y-1.2054
N1025 X0.4022 Y-0.5274
N1027 X0.4044 Y-0.4867
N1029 X0.4053 Y-0.4822
N1031 X0.4086 Y-0.471
N1033 X0.4131 Y-0.4603
N1035 X0.4188 Y-0.4501
N1037 X0.4254 Y-0.4406
N1039 X0.433 Y-0.4318
N1041 X0.4415 Y-0.4239
N1043 X0.4468 Y-0.4198
N1045 X0.4552 Y-0.415
N1047 X0.4662 Y-0.4102
N1049 X0.4775 Y-0.4067
N1051 X0.4892 Y-0.4045
N1053 X0.5109 Y-0.4029
N1055 X1.4814 Y-0.4022
N1057 X1.5075 Y-0.4035
N1059 X1.5163 Y-0.4049
N1061 X1.5265 Y-0.4077
N1063 X1.5372 Y-0.4119
N1065 X1.5475 Y-0.4172
N1067 X1.5572 Y-0.4235
N1069 X1.5661 Y-0.4309
N1071 X1.5742 Y-0.4391
N1073 X1.5839 Y-0.4521
N1075 X1.5854 Y-0.4555
N1077 X1.5949 Y-0.4817
N1079 X1.5961 Y-0.488
N1081 X1.5976 Y-0.5095
N1083 Y-1.4798
N1085 X1.5955 Y-1.5164
N1087 X1.5941 Y-1.5239
N1089 X1.5917 Y-1.5316
N1091 X1.586 Y-1.5444
N1093 X1.569 Y-1.5682
N1095 X1.5676 Y-1.5696
N1097 X1.5633 Y-1.573
N1099 X1.5448 Y-1.5858
N1101 X1.5316 Y-1.5917
N1103 X1.5235 Y-1.5942
N1105 X1.5163 Y-1.5956
N1107 X1.4979 Y-1.5969
N1109 X0.5012 Y-1.5972
N1111 X0.4905 Y-1.5962
N1113 X0.4771 Y-1.5931
N1115 X0.4634 Y-1.5883
N1117 X0.4503 Y-1.5821
N1119 X0.4407 Y-1.5762
N1121 X0.4363 Y-1.5727
N1123 X0.4292 Y-1.5657
N1125 X0.4228 Y-1.558
N1127 X0.4172 Y-1.5498
N1129 X0.4127 Y-1.5415
N1131 X0.4106 Y-1.5363
N1133 X0.4075 Y-1.5266
N1135 X0.4029 Y-1.5039
N1137 X0.4031 Y-1.2447
N1139 X0.4045 Y-1.2391
N1141 X0.4067 Y-1.2338
N1143 X0.4097 Y-1.2289
N1145 X0.4135 Y-1.2245
N1147 X0.4179 Y-1.2208
N1149 X0.4228 Y-1.2178
N1151 X0.4624 Y-1.1974
N1153 X0.4668 Y-1.1937
N1155 X0.4706 Y-1.1894
N1157 X0.4736 Y-1.1845
N1159 X0.4758 Y-1.1792
N1161 X0.4772 Y-1.1736
N1163 X0.4776 Y-1.1678
N1165 X0.4772 Y-0.5294
N1167 X0.4784 Y-0.5102
N1169 X0.4793 Y-0.5013
N1171 X0.4808 Y-0.4941
N1173 X0.483 Y-0.4892
N1175 X0.4868 Y-0.4856
N1177 X0.4932 Y-0.4823
N1179 X0.5015 Y-0.4796
N1181 X0.5137 Y-0.4778
N1183 X1.4795 Y-0.4772
N1185 X1.4986 Y-0.4782
N1187 X1.5067 Y-0.4805
N1189 X1.5132 Y-0.4852
N1191 X1.5177 Y-0.4903
N1193 X1.5198 Y-0.4937
N1195 X1.5206 Y-0.4974
N1197 X1.5216 Y-0.5038
N1199 X1.5226 Y-0.5211
N1201 X1.5222 Y-1.4836
N1203 X1.5205 Y-1.5009
N1205 X1.5194 Y-1.5072
N1207 X1.5181 Y-1.5108
N1209 X1.5119 Y-1.5171
N1211 X1.5104 Y-1.5185
N1213 X1.5068 Y-1.5197
N1215 X1.5005 Y-1.5208
N1217 X1.4832 Y-1.5219
N1219 X0.5062 Y-1.5223
N1221 X0.498 Y-1.5212
N1223 X0.4933 Y-1.5194
N1225 X0.4889 Y-1.5167
N1227 X0.4851 Y-1.5133
N1229 X0.482 Y-1.5092
N1231 X0.4797 Y-1.5047
N1233 X0.4783 Y-1.4998
N1235 X0.4778 Y-1.4947
N1237 X0.4781 Y-1.2071
N1239 X0.4795 Y-1.2015
N1241 X0.4817 Y-1.1962
N1243 X0.4847 Y-1.1913
N1245 X0.4884 Y-1.1869
N1247 X0.4928 Y-1.1832
N1249 X0.4978 Y-1.1803
N1251 X0.5374 Y-1.1599
N1253 X0.5418 Y-1.1562
N1255 X0.5456 Y-1.1518
N1257 X0.5486 Y-1.1469
N1259 X0.5508 Y-1.1416
N1261 X0.5521 Y-1.136
N1263 X0.5526 Y-1.1303
N1265 Y-0.5709
N1267 X0.5539 Y-0.5667
N1269 X0.556 Y-0.5628
N1271 X0.5588 Y-0.5594
N1273 X0.5622 Y-0.5566
N1275 X0.5661 Y-0.5545
N1277 X0.5703 Y-0.5532
N1279 X0.5747 Y-0.5528
N1281 X1.4295 Y-0.5526
N1283 X1.4337 Y-0.5539
N1285 X1.4376 Y-0.556
N1287 X1.441 Y-0.5588
N1289 X1.4438 Y-0.5622
N1291 X1.4459 Y-0.5661
N1293 X1.4472 Y-0.5703
N1295 X1.4476 Y-0.5747
N1297 X1.4472 Y-1.4288
N1299 X1.4459 Y-1.4331
N1301 X1.4438 Y-1.4369
N1303 X1.441 Y-1.4404
N1305 X1.4376 Y-1.4432
N1307 X1.4337 Y-1.4452
N1309 X1.4295 Y-1.4465
N1311 X1.4251 Y-1.447
N1313 X0.5709 Y-1.4471
N1315 X0.5667 Y-1.4458
N1317 X0.5628 Y-1.4438
N1319 X0.5594 Y-1.441
N1321 X0.5566 Y-1.4375
N1323 X0.5545 Y-1.4337
N1325 X0.5532 Y-1.4294
N1327 X0.5528 Y-1.4251
N1329 X0.5531 Y-1.1695
N1331 X0.5544 Y-1.164
N1333 X0.5566 Y-1.1586
N1335 X0.5597 Y-1.1538
N1337 X0.5634 Y-1.1494
N1339 X0.5678 Y-1.1457
N1341 X0.5727 Y-1.1427
N1343 X0.6124 Y-1.1223
N1345 X0.6168 Y-1.1186
N1347 X0.6205 Y-1.1143
N1349 X0.6236 Y-1.1094
N1351 X0.6258 Y-1.1041
N1353 X0.6271 Y-1.0985
N1355 X0.6276 Y-1.0927
N1357 X0.6277 Y-0.6459
N1359 X0.629 Y-0.6417
N1361 X0.631 Y-0.6378
N1363 X0.6338 Y-0.6344
N1365 X0.6372 Y-0.6316
N1367 X0.6411 Y-0.6295
N1369 X0.6454 Y-0.6282
N1371 X0.6497 Y-0.6278
N1373 X1.3545 Y-0.6277
N1375 X1.3587 Y-0.629
N1377 X1.3626 Y-0.6311
N1379 X1.366 Y-0.6338
N1381 X1.3688 Y-0.6373
N1383 X1.3709 Y-0.6411
N1385 X1.3722 Y-0.6454
N1387 X1.3726 Y-0.6498
N1389 X1.3722 Y-1.3539
N1391 X1.3709 Y-1.3581
N1393 X1.3688 Y-1.362
N1395 X1.366 Y-1.3654
N1397 X1.3626 Y-1.3682
N1399 X1.3587 Y-1.3703
N1401 X1.3545 Y-1.3716
N1403 X1.3501 Y-1.372
N1405 X0.6459 Y-1.3721
N1407 X0.6417 Y-1.3708
N1409 X0.6378 Y-1.3687
N1411 X0.6343 Y-1.3659
N1413 X0.6315 Y-1.3625
N1415 X0.6295 Y-1.3586
N1417 X0.6282 Y-1.3544
N1419 X0.6277 Y-1.35
N1421 X0.6281 Y-1.132
N1423 X0.6294 Y-1.1264
N1425 X0.6316 Y-1.1211
N1427 X0.6346 Y-1.1162
N1429 X0.6384 Y-1.1118
N1431 X0.6428 Y-1.1081
N1433 X0.6477 Y-1.1052
N1435 X0.6874 Y-1.0848
N1437 X0.6918 Y-1.0811
N1439 X0.6955 Y-1.0767
N1441 X0.6985 Y-1.0718
N1443 X0.7007 Y-1.0665
N1445 X0.7021 Y-1.0609
N1447 X0.7025 Y-1.0552
N1449 X0.7027 Y-0.7208
N1451 X0.704 Y-0.7166
N1453 X0.7061 Y-0.7127
N1455 X0.7089 Y-0.7093
N1457 X0.7123 Y-0.7065
N1459 X0.7162 Y-0.7044
N1461 X0.7204 Y-0.7031
N1463 X0.7248 Y-0.7027
N1465 X1.2795
N1467 X1.2837 Y-0.704
N1469 X1.2876 Y-0.7061
N1471 X1.291 Y-0.7089
N1473 X1.2938 Y-0.7123
N1475 X1.2959 Y-0.7162
N1477 X1.2972 Y-0.7204
N1479 X1.2976 Y-0.7248
N1481 X1.2972 Y-1.2789
N1483 X1.2959 Y-1.2832
N1485 X1.2938 Y-1.2871
N1487 X1.291 Y-1.2905
N1489 X1.2876 Y-1.2933
N1491 X1.2837 Y-1.2953
N1493 X1.2795 Y-1.2966
N1495 X1.2751 Y-1.2971
N1497 X0.7208 Y-1.297
N1499 X0.7166 Y-1.2957
N1501 X0.7127 Y-1.2937
N1503 X0.7093 Y-1.2909
N1505 X0.7065 Y-1.2874
N1507 X0.7044 Y-1.2836
N1509 X0.7031 Y-1.2793
N1511 X0.7027 Y-1.275
N1513 X0.703 Y-1.0944
N1515 X0.7044 Y-1.0889
N1517 X0.7066 Y-1.0835
N1519 X0.7096 Y-1.0786
N1521 X0.7134 Y-1.0743
N1523 X0.7178 Y-1.0706
N1525 X0.7227 Y-1.0676
N1527 X0.7623 Y-1.0472
N1529 X0.7667 Y-1.0435
N1531 X0.7705 Y-1.0392
N1533 X0.7735 Y-1.0343
N1535 X0.7757 Y-1.029
N1537 X0.7771 Y-1.0234
N1539 X0.7775 Y-1.0176
N1541 X0.7778 Y-0.7958
N1543 X0.7791 Y-0.7916
N1545 X0.7812 Y-0.7877
N1547 X0.7839 Y-0.7843
N1549 X0.7874 Y-0.7815
N1551 X0.7912 Y-0.7794
N1553 X0.7955 Y-0.7781
N1555 X0.7999 Y-0.7777
N1557 X1.2045 Y-0.7778
N1559 X1.2087 Y-0.7791
N1561 X1.2126 Y-0.7812
N1563 X1.216 Y-0.784
N1565 X1.2188 Y-0.7874
N1567 X1.2209 Y-0.7912
N1569 X1.2222 Y-0.7955
N1571 X1.2226 Y-0.7999
N1573 X1.2222 Y-1.204
N1575 X1.2209 Y-1.2082
N1577 X1.2188 Y-1.2121
N1579 X1.216 Y-1.2155
N1581 X1.2126 Y-1.2183
N1583 X1.2087 Y-1.2204
N1585 X1.2045 Y-1.2217
N1587 X1.2001 Y-1.2221
N1589 X0.7958 Y-1.222
N1591 X0.7915 Y-1.2207
N1593 X0.7877 Y-1.2186
N1595 X0.7842 Y-1.2158
N1597 X0.7814 Y-1.2124
N1599 X0.7794 Y-1.2085
N1601 X0.7781 Y-1.2043
N1603 X0.7776 Y-1.1999
N1605 X0.778 Y-1.0569
N1607 X0.7793 Y-1.0513
N1609 X0.7816 Y-1.046
N1611 X0.7846 Y-1.0411
N1613 X0.7883 Y-1.0367
N1615 X0.7927 Y-1.033
N1617 X0.7977 Y-1.0301
N1619 X0.8373 Y-1.0097
N1621 X0.8417 Y-1.006
N1623 X0.8455 Y-1.0016
N1625 X0.8485 Y-0.9967
N1627 X0.8507 Y-0.9914
N1629 X0.852 Y-0.9858
N1631 X0.8525 Y-0.9801
N1633 X0.8528 Y-0.8707
N1635 X0.8541 Y-0.8665
N1637 X0.8562 Y-0.8626
N1639 X0.859 Y-0.8592
N1641 X0.8624 Y-0.8564
N1643 X0.8663 Y-0.8543
N1645 X0.8705 Y-0.853
N1647 X0.8749 Y-0.8526
N1649 X1.1295 Y-0.8529
N1651 X1.1337 Y-0.8541
N1653 X1.1376 Y-0.8562
N1655 X1.141 Y-0.859
N1657 X1.1438 Y-0.8624
N1659 X1.1459 Y-0.8663
N1661 X1.1472 Y-0.8705
N1663 X1.1476 Y-0.8749
N1665 X1.1472 Y-1.129
N1667 X1.1459 Y-1.1333
N1669 X1.1438 Y-1.1372
N1671 X1.141 Y-1.1406
N1673 X1.1376 Y-1.1434
N1675 X1.1337 Y-1.1454
N1677 X1.1295 Y-1.1467
N1679 X1.1251 Y-1.1472
N1681 X0.8707 Y-1.1469
N1683 X0.8665 Y-1.1456
N1685 X0.8626 Y-1.1435
N1687 X0.8592 Y-1.1408
N1689 X0.8564 Y-1.1373
N1691 X0.8543 Y-1.1335
N1693 X0.853 Y-1.1292
N1695 X0.8526 Y-1.1248
N1697 X0.853 Y-1.0193
N1699 X0.8543 Y-1.0137
N1701 X0.8565 Y-1.0084
N1703 X0.8596 Y-1.0035
N1705 X0.8633 Y-0.9992
N1707 X0.8677 Y-0.9955
N1709 X0.8726 Y-0.9925
N1711 X0.9074 Y-0.9751
N1713 X0.9164 Y-0.9695
N1715 X0.9227 Y-0.9629
N1717 X0.9263 Y-0.9553
N1719 X0.9275 Y-0.9463
N1721 X0.9292 Y-0.9388
N1723 X0.9338 Y-0.9329
N1725 X0.941 Y-0.929
N1727 X0.95 Y-0.9275
N1729 X1.0545 Y-0.9279
N1731 X1.0587 Y-0.9292
N1733 X1.0626 Y-0.9313
N1735 X1.066 Y-0.9341
N1737 X1.0688 Y-0.9375
N1739 X1.0709 Y-0.9414
N1741 X1.0722 Y-0.9456
N1743 X1.0726 Y-0.95
N1745 X1.0722 Y-1.0541
N1747 X1.0709 Y-1.0583
N1749 X1.0688 Y-1.0622
N1751 X1.066 Y-1.0656
N1753 X1.0626 Y-1.0684
N1755 X1.0587 Y-1.0705
N1757 X1.0545 Y-1.0718
N1759 X1.0501 Y-1.0722
N1761 X0.9457 Y-1.0719
N1763 X0.9414 Y-1.0706
N1765 X0.9376 Y-1.0685
N1767 X0.9341 Y-1.0657
N1769 X0.9313 Y-1.0623
N1771 X0.9293 Y-1.0584
N1773 X0.928 Y-1.0542
N1775 X0.9275 Y-1.0498
N1777 Y-0.9651
N1779 G3 X0.8688 Y-0.8237 Z0.4644 I-0.2 J-0.0001
N1781 G1 X0.7273 Y-0.6824 Z0.5913
N1783 G0 Z0.92
N1785 X-0.325 Y-1.7828
N1787 Z0.621
N1789 G1 Z0.25 F4.0
N1791 X-0.1836 Y-1.6414 F8.0
N1793 G3 X-0.125 Y-1.5 R0.2 F6.0
N1795 G1 Y-0.5 F8.0
N1797 G2 X0.5 Y0.125 R0.625 F10.0
N1799 G1 X1.5 F8.0
N1801 G2 X2.125 Y-0.5 R0.625 F10.0
N1803 G1 Y-1.5 F8.0
N1805 G2 X1.5 Y-2.125 R0.625 F10.0
N1807 G1 X0.5 F8.0
N1809 G2 X-0.125 Y-1.5 R0.625 F10.0
N1811 G3 X-0.1836 Y-1.3586 R0.2 F6.0
N1813 G1 X-0.325 Y-1.2172 F8.0
N1815 G0 Z0.92
N1817 G91 G28 Z0
N1819 M05
N1821 T04 M06 (1/16 ENDMILL  4FLT HSS)
N1823 G0 G90 G56 X1.0899 Y-0.6908 M3 S4500
N1825 G43 H04 Z0.92 
N1827 Z0.605
N1829 G1 Z0.405 F4.0
N1831 Y-0.6861 F8.0
N1833 X1.0912 Y-0.6851
N1835 X1.094 Y-0.6867
N1837 X1.0948 Y-0.6875
N1839 X1.0956 Y-0.6898
N1841 X1.0944 Y-0.6913
N1843 X1.0899 Y-0.6908
N1845 Z0.62 F10.0
N1847 X1.0887 Y-0.4589
N1849 Z0.605
N1851 Z0.405 F4.0
N1853 Y-0.4542 F8.0
N1855 X1.09 Y-0.4532
N1857 X1.0921 Y-0.454
N1859 X1.0953 Y-0.4579
N1861 X1.1018 Y-0.4634
N1863 X1.1022 Y-0.4649
N1865 X1.1018 Y-0.4664
N1867 X1.1009 Y-0.4676
N1869 X1.0943 Y-0.4729
N1871 X1.0913 Y-0.4762
N1873 X1.0901
N1875 X1.0891 Y-0.4755
N1877 X1.0888 Y-0.4743
N1879 X1.0887 Y-0.4589
N1881 Z0.62 F10.0
N1883 X1.0827 Y-0.2418
N1885 Z0.605
N1887 Z0.405 F4.0
N1889 X1.0905 Y-0.2479 F8.0
N1891 X1.0948 Y-0.2425
N1893 X1.0952 Y-0.2403
N1895 X1.0934 Y-0.239
N1897 X1.0891 Y-0.2404
N1899 X1.0876 Y-0.2446
N1901 X1.0879 Y-0.248
N1903 X1.0887 Y-0.2486
N1905 X1.0897
N1907 X1.0905 Y-0.2479
N1909 X1.0845 Y-0.2399
N1911 Z0.62 F10.0
N1913 X1.1222 Y-0.6914
N1915 Z0.605
N1917 Z0.405 F4.0
N1919 G2 X1.0909 Y-0.6601 R0.0312 F8.0
N1921 G1 X1.091 Y-0.4999
N1923 G2 X1.1222 Y-0.4686 R0.0312
N1925 G1 X1.3619 Y-0.4687
N1927 G3 X1.3657 Y-0.465 R0.0038 F6.0
N1929 X1.3619 Y-0.4612 R0.0038
N1931 G1 X1.1223 Y-0.4611 F8.0
N1933 G2 X1.091 Y-0.4299 R0.0312
N1935 G1 X1.0911 Y-0.27
N1937 G2 X1.1223 Y-0.2388 R0.0312
N1939 G1 X1.3595
N1941 G3 Y-0.2312 R0.0038 F6.0
N1943 G1 X1.0799 F8.0
N1945 X1.0822 Y-0.699
N1947 X1.3618
N1949 G3 X1.3656 Y-0.6952 R0.0038 F6.0
N1951 X1.3618 Y-0.6915 R0.0038
N1953 G1 X1.1222 Y-0.6914 F8.0
N1955 Z0.62 F10.0
N1957 X0.75 Y-0.8529
N1959 Z0.605
N1961 Z0.405 F4.0
N1963 X0.7591 Y-0.8438 F8.0
N1965 X0.7637 Y-0.8406
N1967 X0.7739 Y-0.8344
N1969 X0.7907 Y-0.8278
N1971 X0.8083 Y-0.824
N1973 X0.8263 Y-0.8232
N1975 X0.8441 Y-0.8254
N1977 X0.8602 Y-0.8305
N1979 X0.8752 Y-0.8384
N1981 X0.8886 Y-0.8488
N1983 X0.9 Y-0.8613
N1985 X0.909 Y-0.8756
N1987 X0.9219 Y-0.91
N1989 X0.9272 Y-0.9273
N1991 X0.9355 Y-0.9837
N1993 X0.9374 Y-1.0318
N1995 X0.9363 Y-1.0801
N1997 X0.932 Y-1.128
N1999 X0.9261 Y-1.1557
N2001 X0.9177 Y-1.1828
N2003 X0.9071 Y-1.2087
N2005 X0.8978 Y-1.2227
N2007 X0.8861 Y-1.2348
N2009 X0.8724 Y-1.2446
N2011 X0.8572 Y-1.2517
N2013 X0.8404 Y-1.2562
N2015 X0.8221 Y-1.258
N2017 X0.804 Y-1.2566
N2019 X0.7864 Y-1.2519
N2021 X0.77 Y-1.2443
N2023 X0.7551 Y-1.2338
N2025 X0.7424 Y-1.2209
N2027 X0.7321 Y-1.206
N2029 X0.7246 Y-1.1893
N2031 X0.7152 Y-1.1552
N2033 X0.7089 Y-1.1201
N2035 X0.7058 Y-1.0844
N2037 X0.7046 Y-1.0391
N2039 X0.7056 Y-1.0015
N2041 X0.7092 Y-0.964
N2043 X0.7152 Y-0.9271
N2045 X0.7274 Y-0.8884
N2047 X0.7358 Y-0.8719
N2049 X0.7483 Y-0.8548
N2051 X0.751 Y-0.8533
N2053 X0.7571 Y-0.8524
N2055 X0.7582 Y-0.8527
N2057 X0.759 Y-0.8536
N2059 Y-0.8547
N2061 X0.7584 Y-0.8556
N2063 X0.7562 Y-0.8575
N2065 X0.7449 Y-0.8715
N2067 X0.7356 Y-0.8894
N2069 X0.7261 Y-0.9236
N2071 X0.7203 Y-0.9583
N2073 X0.7183 Y-0.9938
N2075 X0.7176 Y-1.04
N2077 X0.7186 Y-1.0863
N2079 X0.7215 Y-1.1325
N2081 X0.7259 Y-1.1596
N2083 X0.7341 Y-1.1858
N2085 X0.7491 Y-1.2156
N2087 X0.7615 Y-1.2293
N2089 X0.7683 Y-1.2343
N2091 X0.7927 Y-1.2468
N2093 X0.8221 Y-1.2511
N2095 X0.8397 Y-1.249
N2097 X0.8568 Y-1.2435
N2099 X0.8724 Y-1.2349
N2101 X0.8862 Y-1.2234
N2103 X0.8975 Y-1.2095
N2105 X0.9068 Y-1.1915
N2107 X0.9163 Y-1.1574
N2109 X0.922 Y-1.1227
N2111 X0.9241 Y-1.0874
N2113 X0.9248 Y-1.0412
N2115 X0.9238 Y-0.9949
N2117 X0.9209 Y-0.9487
N2119 X0.9164 Y-0.9215
N2121 X0.9083 Y-0.8954
N2123 X0.8933 Y-0.8657
N2125 X0.8802 Y-0.8513
N2127 X0.8503 Y-0.8348
N2129 X0.8444 Y-0.8334
N2131 X0.8203 Y-0.8298
N2133 X0.8027 Y-0.8319
N2135 X0.7856 Y-0.8374
N2137 X0.7699 Y-0.8461
N2139 X0.7627 Y-0.8521
N2141 Z0.422
N2143 X0.7069 Y-1.0389
N2145 Z0.405 F4.0
N2147 X0.6969 Y-1.0391 F8.0
N2149 X0.6981 Y-1.0849
N2151 G3 X0.7174 Y-1.1919 R0.398 F7.42
N2153 X0.8416 Y-1.2638 R0.1098 F6.23
N2155 G1 X0.8418 Y-1.2637 F8.0
N2157 X0.8422
N2159 G3 X0.9139 Y-1.2123 R0.1006 F6.1
N2161 X0.9396 Y-1.1292 R0.3262 F7.3
N2163 X0.9432 Y-0.983 R0.764 F7.69
N2165 G1 X0.9347 Y-0.9257 F8.0
N2167 G3 X0.9159 Y-0.8721 R0.4288 F7.46
N2169 X0.8458 Y-0.8179 R0.1043 F6.16
N2171 X0.754 Y-0.8374 R0.1167 F6.31
N2173 X0.7203 Y-0.8855 R0.1383 F6.53
N2175 G1 X0.7077 Y-0.9253 F8.0
N2177 G3 X0.6969 Y-1.0391 R0.5725 F7.59
N2179 G1 X0.7069 Y-1.0389 F8.0
N2181 Z0.62 F10.0
N2183 X0.822 Y-0.8276
N2185 Z0.605
N2187 Z0.405 F4.0
N2189 X0.8203 Y-0.8374 F8.0
N2191 X0.8441 Y-0.8408
N2193 G2 X0.8544 Y-0.8445 R0.0312
N2195 G1 X0.87 Y-0.8533
N2197 G2 X0.878 Y-0.8598 R0.0312
N2199 G1 X0.886 Y-0.8688
N2201 G2 X0.8898 Y-0.8742 R0.0312
N2203 X0.9132 Y-0.949 R0.1895 F9.58
N2205 G1 Y-0.9495 F8.0
N2207 G2 X0.9164 Y-1.0873 R1.1867 F8.22
N2209 X0.8998 Y-1.1884 R0.3272 F8.84
N2211 G1 X0.899 Y-1.1905 F8.0
N2213 G2 X0.8221 Y-1.2435 R0.0859 F10.0
N2215 G1 X0.7985 Y-1.2402 F8.0
N2217 G2 X0.7882 Y-1.2366 R0.0312
N2219 G1 X0.7725 Y-1.2278
N2221 G2 X0.7644 Y-1.2214 R0.0312
N2223 G1 X0.7564 Y-1.2124
N2225 G2 X0.7525 Y-1.2069 R0.0312
N2227 X0.7291 Y-1.1322 R0.1884 F9.59
N2229 G1 Y-1.1317 F8.0
N2231 G2 X0.726 Y-0.9939 R1.2001 F8.21
N2233 X0.7427 Y-0.8925 R0.3244 F8.85
N2235 G1 X0.7434 Y-0.8905 F8.0
N2237 G2 X0.8203 Y-0.8374 R0.0857 F10.0
N2239 G1 X0.822 Y-0.8276 F8.0
N2241 Z0.62 F10.0
N2243 X0.6687 Y-0.5249
N2245 Z0.605
N2247 Z0.405 F4.0
N2249 X0.6587 F8.0
N2251 X0.6589 Y-0.5357
N2253 X0.6599 Y-0.5359
N2255 X0.6603 Y-0.5354
N2257 X0.6644 Y-0.522
N2259 X0.6643 Y-0.5182
N2261 X0.6624 Y-0.5161
N2263 X0.6599 Y-0.5173
N2265 X0.6587 Y-0.5202
N2267 X0.6575 Y-0.5244
N2269 X0.6537 Y-0.5274
N2271 X0.6429 Y-0.5331
N2273 X0.6413 Y-0.5351
N2275 X0.6403 Y-0.5374
N2277 X0.6399 Y-0.5399
N2279 Y-0.6619
N2281 X0.641 Y-0.6621
N2283 X0.6414 Y-0.6616
N2285 X0.6919 Y-0.4949
N2287 X0.6914 Y-0.494
N2289 X0.6904 Y-0.4935
N2291 X0.6886 Y-0.4939
N2293 X0.6791 Y-0.4973
N2295 X0.6691 Y-0.4982
N2297 X0.6592 Y-0.4964
N2299 X0.6501 Y-0.4922
N2301 X0.6436 Y-0.4867
N2303 X0.6414 Y-0.4844
N2305 X0.6405 Y-0.4854
N2307 X0.64 Y-0.4882
N2309 X0.6399 Y-0.5342
N2311 X0.6499
N2313 Z0.62 F10.0
N2315 X0.8947 Y-0.5167
N2317 Z0.605
N2319 Z0.405 F4.0
N2321 X0.8847 F8.0
N2323 X0.8909 Y-0.5364
N2325 X0.892 Y-0.5362
N2327 X0.8922 Y-0.5357
N2329 Y-0.5212
N2331 X0.891 Y-0.5175
N2333 X0.8884 Y-0.5161
N2335 X0.8849 Y-0.5153
N2337 X0.8817 Y-0.5119
N2339 X0.8738 Y-0.4998
N2341 X0.8715 Y-0.4978
N2343 X0.8646 Y-0.4947
N2345 X0.8603 Y-0.4934
N2347 X0.8593 Y-0.4938
N2349 X0.8588 Y-0.4947
N2351 Y-0.4958
N2353 X0.9095 Y-0.6626
N2355 X0.9106 Y-0.6624
N2357 X0.9108 Y-0.6619
N2359 X0.911 Y-0.4883
N2361 X0.9103 Y-0.4856
N2363 X0.9093 Y-0.4848
N2365 X0.9069 Y-0.4873
N2367 X0.8991 Y-0.4933
N2369 X0.8898 Y-0.497
N2371 X0.8798 Y-0.4982
N2373 X0.8727 Y-0.4974
N2375 X0.8716 Y-0.5073
N2377 Z0.62 F10.0
N2379 X0.7631 Y-0.3145
N2381 Z0.605
N2383 Z0.405 F4.0
N2385 X0.7546 Y-0.3197 F8.0
N2387 X0.7551 Y-0.3206
N2389 X0.7561 Y-0.3211
N2391 X0.7576 Y-0.3208
N2393 X0.7667 Y-0.3174
N2395 X0.7766 Y-0.3164
N2397 X0.7863 Y-0.318
N2399 X0.7947 Y-0.3211
N2401 X0.7958 Y-0.3206
N2403 X0.7964 Y-0.3196
N2405 X0.7963 Y-0.3184
N2407 X0.7765 Y-0.2547
N2409 X0.7755 Y-0.2543
N2411 X0.7745 Y-0.2547
N2413 X0.7738 Y-0.2556
N2415 X0.7546 Y-0.3197
N2417 X0.7641 Y-0.3226
N2419 X0.7456 Y-0.3462
N2421 G2 X0.7756 Y-0.3241 R0.0312
N2423 X0.8055 Y-0.3462 R0.0312
N2425 G1 X0.9116 Y-0.6967
N2427 G3 X0.919 Y-0.6956 R0.0038 F6.0
N2429 G1 Y-0.235 F8.0
N2431 G3 X0.9152 Y-0.2312 R0.0038 F6.0
N2433 X0.9115 Y-0.235 R0.0038
N2435 G1 X0.9114 Y-0.4593 F8.0
N2437 G2 X0.8847 Y-0.4902 R0.0312
N2439 X0.8502 Y-0.4684 R0.0312
N2441 G1 X0.779 Y-0.2338
N2443 G3 X0.7755 Y-0.2312 R0.0038 F6.0
N2445 X0.7719 Y-0.2338 R0.0038
N2447 G1 X0.7007 Y-0.4684 F8.0
N2449 G2 X0.6663 Y-0.4902 R0.0312
N2451 X0.6396 Y-0.4593 R0.0312
N2453 G1 Y-0.2349
N2455 G3 X0.6358 Y-0.2312 R0.0038 F6.0
N2457 X0.6321 Y-0.2349 R0.0038
N2459 G1 X0.632 Y-0.6952 F8.0
N2461 G3 X0.6394 Y-0.6963 R0.0038 F6.0
N2463 G1 X0.7456 Y-0.3462 F8.0
N2465 Z0.62 F10.0
N2467 X1.1229 Y-1.2318
N2469 Z0.605
N2471 Z0.405 F4.0
N2473 X1.114 Y-1.2272 F8.0
N2475 X1.1128 Y-1.2298
N2477 X1.114 Y-1.2314
N2479 X1.1173 Y-1.2323
N2481 X1.1237 Y-1.2319
N2483 X1.1246 Y-1.2308
N2485 X1.1248 Y-1.2294
N2487 X1.1238 Y-1.2277
N2489 X1.1213 Y-1.2239
N2491 X1.1186 Y-1.2221
N2493 X1.1161 Y-1.223
N2495 X1.1131 Y-1.2262
N2497 X1.1084 Y-1.2274
N2499 X1.0962 Y-1.2281
N2501 X1.094 Y-1.2292
N2503 X1.0921 Y-1.2308
N2505 X1.0907 Y-1.2329
N2507 X1.0885 Y-1.2377
N2509 X1.0856 Y-1.2476
N2511 X1.0863 Y-1.2494
N2513 X1.0878 Y-1.2506
N2515 X1.0896 Y-1.2511
N2517 X1.3038 Y-1.2506
N2519 X1.3056 Y-1.2494
N2521 X1.3068 Y-1.2476
N2523 X1.3073 Y-1.2454
N2525 X1.3068 Y-1.2351
N2527 X1.3056 Y-1.2333
N2529 X1.3038 Y-1.2321
N2531 X1.3016 Y-1.2316
N2533 X1.1614 Y-1.2305
N2535 X1.1565 Y-1.2291
N2537 X1.152 Y-1.2272
N2539 X1.1445 Y-1.2221
N2541 X1.1384 Y-1.2155
N2543 X1.1359 Y-1.2116
N2545 X1.1339 Y-1.2074
N2547 X1.1312 Y-1.1984
N2549 X1.1309 Y-1.1894
N2551 X1.1328 Y-1.1805
N2553 X1.1361 Y-1.1731
N2555 X1.1519 Y-1.1492
N2557 X1.1699 Y-1.1274
N2559 X1.217 Y-1.081
N2561 X1.2437 Y-1.0532
N2563 X1.2693 Y-1.025
N2565 X1.2807 Y-1.0066
N2567 X1.2912 Y-0.987
N2569 X1.3003 Y-0.9673
N2571 X1.305 Y-0.9491
N2573 X1.3071 Y-0.9303
N2575 X1.3063 Y-0.9114
N2577 X1.3028 Y-0.8928
N2579 X1.2964 Y-0.8754
N2581 X1.2937 Y-0.8706
N2583 X1.2888 Y-0.8628
N2585 X1.2787 Y-0.8515
N2587 X1.267 Y-0.8419
N2589 X1.254 Y-0.8343
N2591 X1.24 Y-0.8289
N2593 X1.2171 Y-0.8249
N2595 X1.1936 Y-0.8238
N2597 X1.1705 Y-0.8256
N2599 X1.1433 Y-0.8336
N2601 X1.1293 Y-0.841
N2603 X1.1116 Y-0.8557
N2605 X1.1082 Y-0.86
N2607 X1.0999 Y-0.8722
N2609 X1.0907 Y-0.8911
N2611 X1.0886 Y-0.8992
N2613 X1.0893 Y-0.9011
N2615 X1.0907 Y-0.9025
N2617 X1.0948 Y-0.9034
N2619 X1.0971 Y-0.9032
N2621 X1.0992 Y-0.9023
N2623 X1.1008 Y-0.9006
N2625 X1.1018 Y-0.8985
N2627 X1.1034 Y-0.8928
N2629 X1.113 Y-0.8732
N2631 X1.1253 Y-0.858
N2633 X1.1403 Y-0.8456
N2635 X1.1576 Y-0.8365
N2637 X1.1764 Y-0.8312
N2639 X1.1954 Y-0.8297
N2641 X1.2135 Y-0.8308
N2643 X1.2311 Y-0.8354
N2645 X1.2475 Y-0.8432
N2647 X1.2622 Y-0.8541
N2649 X1.2744 Y-0.8676
N2651 X1.2839 Y-0.8831
N2653 X1.2902 Y-0.9002
N2655 X1.2935 Y-0.9203
N2657 X1.294 Y-0.9394
N2659 X1.2921 Y-0.9585
N2661 X1.2875 Y-0.9775
N2663 X1.2719 Y-1.011
N2665 X1.2509 Y-1.0395
N2667 X1.164 Y-1.1322
N2669 X1.1369 Y-1.1632
N2671 X1.1111 Y-1.1947
N2673 X1.0987 Y-1.2156
N2675 X1.0931 Y-1.2278
N2677 X1.1022 Y-1.232
N2679 Z0.62 F10.0
N2681 X1.2681 Y-1.0225
N2683 Z0.605
N2685 Z0.405 F4.0
N2687 X1.2765 Y-1.028 F8.0
N2689 G3 X1.3076 Y-0.9699 R0.3596 F7.36
N2691 X1.3037 Y-0.8719 R0.1363 F6.51
N2693 X1.2421 Y-0.8215 R0.1032 F6.14
N2695 X1.1691 Y-0.818 R0.1934 F6.89
N2697 G1 X1.1404 Y-0.8265 F8.0
N2699 X1.125 Y-0.8345
N2701 X1.1056 Y-0.8501
N2703 G3 X1.0769 Y-0.9092 R0.1525 F6.64
N2705 G1 X1.1061 Y-0.9123 F8.0
N2707 G2 X1.1105 Y-0.8958 R0.2375 F9.21
N2709 G1 X1.1112 Y-0.8936 F8.0
N2711 G2 X1.1953 Y-0.8374 R0.0877 F10.0
N2713 X1.2827 Y-0.9019 R0.0868
N2715 G1 X1.2829 Y-0.9029 F8.0
N2717 G2 X1.2803 Y-0.9747 R0.1385 F10.0
N2719 G1 X1.2655 Y-1.0068 F8.0
N2721 G2 X1.262 Y-1.0125 R0.0312
N2723 G1 X1.2453 Y-1.0342
N2725 X1.2433 Y-1.0366
N2727 X1.1866 Y-1.0969
N2729 G3 X1.1048 Y-1.1903 R1.18 F7.79
N2731 X1.0733 Y-1.2588 R0.241 F7.08
N2733 G1 X1.315 F8.0
N2735 Y-1.224
N2737 X1.1697
N2739 G2 X1.1427 Y-1.177 R0.0312
N2741 X1.1948 Y-1.1136 R0.2615 F9.09
N2743 G3 X1.2754 Y-1.0297 R1.3503 F7.82
N2745 G1 X1.2765 Y-1.028 F8.0
N2747 X1.2681 Y-1.0225
N2749 Z0.62 F10.0
N2751 X1.6222 Y-0.877
N2753 Z0.605
N2755 Z0.405 F4.0
N2757 X1.6139 Y-0.8714 F8.0
N2759 X1.6067 Y-0.883
N2761 X1.6069 Y-0.8851
N2763 X1.6078 Y-0.8869
N2765 X1.6095 Y-0.8881
N2767 X1.6161 Y-0.8907
N2769 X1.6175 Y-0.8903
N2771 X1.6186 Y-0.8891
N2773 X1.619 Y-0.8876
N2775 X1.6191 Y-0.8692
N2777 X1.618 Y-0.8675
N2779 X1.6165
N2781 X1.614 Y-0.8714
N2783 X1.6223 Y-0.8769
N2785 Z0.6198 F10.0
N2787 X1.6364 Y-1.147
N2789 Z0.605
N2791 Z0.405 F4.0
N2793 X1.6289 Y-1.1405 F8.0
N2795 X1.6272 Y-1.1424
N2797 Y-1.1447
N2799 X1.6286 Y-1.1475
N2801 X1.6314 Y-1.1487
N2803 X1.6343 Y-1.1475
N2805 X1.6354 Y-1.1442
N2807 X1.6342 Y-1.1408
N2809 X1.632 Y-1.1391
N2811 X1.6301 Y-1.1388
N2813 X1.6276 Y-1.1396
N2815 X1.6234 Y-1.1391
N2817 X1.6091 Y-1.1358
N2819 X1.606 Y-1.136
N2821 X1.6017 Y-1.1373
N2823 X1.5951 Y-1.1398
N2825 X1.5863 Y-1.141
N2827 X1.4704 Y-1.1397
N2829 X1.4654 Y-1.1383
N2831 X1.4608 Y-1.1362
N2833 X1.4531 Y-1.1309
N2835 X1.4499 Y-1.1276
N2837 X1.4469 Y-1.1238
N2839 X1.4423 Y-1.1153
N2841 X1.439 Y-1.1035
N2843 X1.4379 Y-1.1036
N2845 X1.4371 Y-1.1042
N2847 X1.4319 Y-1.1126
N2849 X1.4309 Y-1.1161
N2851 X1.4305 Y-1.1197
N2853 X1.4309 Y-1.1439
N2855 X1.4322 Y-1.1457
N2857 X1.434 Y-1.1469
N2859 X1.4361 Y-1.1474
N2861 X1.5868
N2863 X1.5971 Y-1.149
N2865 X1.6059 Y-1.1528
N2867 X1.6139 Y-1.1591
N2869 X1.6202 Y-1.1678
N2871 X1.6238 Y-1.1772
N2873 X1.625 Y-1.186
N2875 X1.6254 Y-1.2476
N2877 X1.6266 Y-1.2494
N2879 X1.6284 Y-1.2506
N2881 X1.6322 Y-1.2511
N2883 X1.6344 Y-1.2506
N2885 X1.6362 Y-1.2494
N2887 X1.6374 Y-1.2476
N2889 X1.6379 Y-1.2454
N2891 Y-1.1856
N2893 X1.6395 Y-1.1752
N2895 X1.6433 Y-1.1664
N2897 X1.6496 Y-1.1585
N2899 X1.6582 Y-1.1521
N2901 X1.6677 Y-1.1485
N2903 X1.6765 Y-1.1474
N2905 X1.6906
N2907 X1.6944 Y-1.1464
N2909 X1.6962 Y-1.1442
N2911 X1.6944 Y-1.1419
N2913 X1.6906 Y-1.141
N2915 X1.676 Y-1.1409
N2917 X1.6657 Y-1.1393
N2919 X1.6569 Y-1.1355
N2921 X1.6489 Y-1.1292
N2923 X1.6426 Y-1.1206
N2925 X1.639 Y-1.1111
N2927 X1.6378 Y-1.1023
N2929 X1.6374 Y-0.8333
N2931 X1.6362 Y-0.8315
N2933 X1.6344 Y-0.8303
N2935 X1.6322 Y-0.8298
N2937 X1.6221 Y-0.8302
N2939 X1.6197 Y-0.8311
N2941 X1.6176 Y-0.8326
N2943 X1.6159 Y-0.8345
N2945 X1.5715 Y-0.9021
N2947 X1.5719 Y-0.9032
N2949 X1.5729 Y-0.9038
N2951 X1.5741
N2953 X1.5786 Y-0.9023
N2955 X1.5885 Y-0.9017
N2957 X1.5982 Y-0.9036
N2959 X1.6072 Y-0.9078
N2961 X1.6141 Y-0.914
N2963 X1.6204 Y-0.9224
N2965 X1.6239 Y-0.9316
N2967 X1.6249 Y-0.9402
N2969 Y-1.1028
N2971 X1.6233 Y-1.1131
N2973 X1.6195 Y-1.1219
N2975 X1.6132 Y-1.1299
N2977 X1.6067 Y-1.1349
N2979 X1.6128 Y-1.1428
N2981 X1.6355 Y-1.1863
N2983 X1.6455
N2985 G2 X1.6768 Y-1.155 R0.0312
N2987 G1 X1.7039
N2989 Y-1.1333
N2991 X1.6768
N2993 G2 X1.6455 Y-1.102 R0.0312
N2995 G1 Y-0.8222
N2997 X1.6149
N2999 X1.4228 Y-1.1118
N3001 Y-1.155
N3003 X1.586
N3005 G2 X1.6173 Y-1.1863 R0.0312
N3007 G1 Y-1.2588
N3009 X1.6455
N3011 Y-1.1863
N3013 X1.6355
N3015 X1.6272 Y-1.1033
N3017 X1.6173 Y-1.102
N3019 G2 X1.586 Y-1.1333 R0.0312
N3021 G1 X1.4789
N3023 G2 X1.4528 Y-1.0848 R0.0312
N3025 G1 X1.56 Y-0.9232
N3027 G2 X1.5951 Y-0.9106 R0.0312
N3029 X1.6173 Y-0.9405 R0.0312
N3031 G1 Y-1.102
N3033 X1.6273
N3035 Z0.62 F10.0
N3037 X1.0333 Y-1.6014
N3039 Z0.605
N3041 Z0.405 F4.0
N3043 X1.0253 Y-1.6075 F8.0
N3045 X1.031 Y-1.615
N3047 X1.0348 Y-1.6241
N3049 X1.0361 Y-1.6347
N3051 X1.037 Y-1.6338
N3053 X1.0385 Y-1.6312
N3055 X1.0644 Y-1.5794
N3057 X1.0645 Y-1.5786
N3059 X1.064 Y-1.578
N3061 X1.0632 Y-1.5777
N3063 X1.0625 Y-1.578
N3065 X1.054 Y-1.5856
N3067 X1.0382 Y-1.595
N3069 X1.0235 Y-1.6003
N3071 X1.0214 Y-1.6023
N3073 X1.0218 Y-1.6045
N3075 X1.0254 Y-1.6075
N3077 X1.0318 Y-1.5998
N3079 Z0.422
N3081 X1.0968 Y-1.5009
N3083 Z0.405 F4.0
N3085 X1.0969 F8.0
N3087 G3 X1.0183 Y-1.4055 R0.1022 F6.13
N3089 X0.9047 Y-1.4829 R0.0977 F6.06
N3091 X0.9241 Y-1.5671 R0.1119 F6.25
N3093 X0.9974 Y-1.6032 R0.0933 F6.0
N3095 G2 X1.0252 Y-1.6486 R0.0312 F8.0
N3097 G1 X0.9668 Y-1.7635
N3099 X0.9772 Y-1.7688
N3101 X1.0686 Y-1.589
N3103 X1.0911 Y-1.538
N3105 G3 X1.0969 Y-1.5023 R0.2108 F6.97
N3107 G1 Y-1.5009 F8.0
N3109 X1.084 Y-1.5138 Z0.422
N3111 X1.0026 Y-1.5962 Z0.42
N3113 Z0.405 F4.0
N3115 X0.9998 F8.0
N3117 G2 X0.921 Y-1.5396 R0.0881 F10.0
N3119 G1 X0.9207 Y-1.5388 F8.0
N3121 G2 X0.9529 Y-1.4314 R0.0953 F10.0
N3123 G1 X0.9548 Y-1.4301 F8.0
N3125 G2 X1.0297 Y-1.4217 R0.084 F10.0
N3127 G1 X1.0329 Y-1.4231 F8.0
N3129 G2 X1.0847 Y-1.5059 R0.094 F10.0
N3131 X1.0026 Y-1.5962 R0.0866
N3133 G1 Z0.62
N3135 X0.384 Y-1.2318
N3137 Z0.605
N3139 Z0.405 F4.0
N3141 X0.3751 Y-1.2272 F8.0
N3143 X0.3739 Y-1.2298
N3145 X0.3751 Y-1.2314
N3147 X0.3784 Y-1.2323
N3149 X0.3848 Y-1.2319
N3151 X0.3857 Y-1.2308
N3153 X0.3859 Y-1.2294
N3155 X0.3849 Y-1.2277
N3157 X0.3824 Y-1.2239
N3159 X0.3797 Y-1.2221
N3161 X0.3772 Y-1.223
N3163 X0.3742 Y-1.2262
N3165 X0.3695 Y-1.2274
N3167 X0.3573 Y-1.2281
N3169 X0.355 Y-1.2292
N3171 X0.3532 Y-1.2308
N3173 X0.3518 Y-1.2329
N3175 X0.3496 Y-1.2377
N3177 X0.3467 Y-1.2476
N3179 X0.3474 Y-1.2494
N3181 X0.3489 Y-1.2506
N3183 X0.3507 Y-1.2511
N3185 X0.5649 Y-1.2506
N3187 X0.5667 Y-1.2494
N3189 X0.5679 Y-1.2476
N3191 X0.5684 Y-1.2454
N3193 X0.5679 Y-1.2351
N3195 X0.5667 Y-1.2333
N3197 X0.5649 Y-1.2321
N3199 X0.5627 Y-1.2316
N3201 X0.4225 Y-1.2305
N3203 X0.4176 Y-1.2291
N3205 X0.4131 Y-1.2272
N3207 X0.4055 Y-1.2221
N3209 X0.3994 Y-1.2155
N3211 X0.397 Y-1.2116
N3213 X0.3949 Y-1.2074
N3215 X0.3923 Y-1.1984
N3217 X0.392 Y-1.1894
N3219 X0.3939 Y-1.1805
N3221 X0.3972 Y-1.1731
N3223 X0.413 Y-1.1492
N3225 X0.431 Y-1.1274
N3227 X0.4781 Y-1.081
N3229 X0.5048 Y-1.0532
N3231 X0.5303 Y-1.025
N3233 X0.5418 Y-1.0066
N3235 X0.5523 Y-0.987
N3237 X0.5614 Y-0.9673
N3239 X0.5661 Y-0.9491
N3241 X0.5681 Y-0.9303
N3243 X0.5674 Y-0.9114
N3245 X0.5639 Y-0.8928
N3247 X0.5575 Y-0.8754
N3249 X0.5548 Y-0.8706
N3251 X0.5498 Y-0.8628
N3253 X0.5398 Y-0.8515
N3255 X0.5281 Y-0.8419
N3257 X0.5151 Y-0.8343
N3259 X0.5011 Y-0.8289
N3261 X0.4782 Y-0.8249
N3263 X0.4547 Y-0.8238
N3265 X0.4316 Y-0.8256
N3267 X0.4044 Y-0.8336
N3269 X0.3903 Y-0.841
N3271 X0.3727 Y-0.8557
N3273 X0.3692 Y-0.86
N3275 X0.3609 Y-0.8722
N3277 X0.3518 Y-0.8911
N3279 X0.3497 Y-0.8992
N3281 X0.3504 Y-0.9011
N3283 X0.3518 Y-0.9025
N3285 X0.3559 Y-0.9034
N3287 X0.3582 Y-0.9032
N3289 X0.3603 Y-0.9023
N3291 X0.3619 Y-0.9006
N3293 X0.3629 Y-0.8985
N3295 X0.3645 Y-0.8928
N3297 X0.3741 Y-0.8732
N3299 X0.3864 Y-0.858
N3301 X0.4014 Y-0.8456
N3303 X0.4187 Y-0.8365
N3305 X0.4374 Y-0.8312
N3307 X0.4565 Y-0.8297
N3309 X0.4746 Y-0.8308
N3311 X0.4922 Y-0.8354
N3313 X0.5086 Y-0.8432
N3315 X0.5232 Y-0.8541
N3317 X0.5355 Y-0.8676
N3319 X0.545 Y-0.8831
N3321 X0.5512 Y-0.9002
N3323 X0.5546 Y-0.9203
N3325 X0.5551 Y-0.9394
N3327 X0.5531 Y-0.9585
N3329 X0.5486 Y-0.9775
N3331 X0.533 Y-1.011
N3333 X0.512 Y-1.0395
N3335 X0.425 Y-1.1322
N3337 X0.3979 Y-1.1632
N3339 X0.3722 Y-1.1947
N3341 X0.3598 Y-1.2156
N3343 X0.3542 Y-1.2278
N3345 X0.3633 Y-1.232
N3347 Z0.62 F10.0
N3349 X0.5292 Y-1.0225
N3351 Z0.605
N3353 Z0.405 F4.0
N3355 X0.5376 Y-1.028 F8.0
N3357 G3 X0.5686 Y-0.9699 R0.3596 F7.36
N3359 X0.5648 Y-0.8719 R0.1363 F6.51
N3361 X0.5032 Y-0.8215 R0.1032 F6.14
N3363 X0.4302 Y-0.818 R0.1934 F6.89
N3365 G1 X0.4015 Y-0.8265 F8.0
N3367 X0.3861 Y-0.8345
N3369 X0.3667 Y-0.8501
N3371 G3 X0.3379 Y-0.9092 R0.1525 F6.64
N3373 G1 X0.3672 Y-0.9123 F8.0
N3375 G2 X0.3716 Y-0.8958 R0.2375 F9.21
N3377 G1 X0.3723 Y-0.8936 F8.0
N3379 G2 X0.4564 Y-0.8374 R0.0877 F10.0
N3381 X0.5437 Y-0.9019 R0.0868
N3383 G1 X0.544 Y-0.9029 F8.0
N3385 G2 X0.5414 Y-0.9747 R0.1385 F10.0
N3387 G1 X0.5266 Y-1.0068 F8.0
N3389 G2 X0.5231 Y-1.0125 R0.0312
N3391 G1 X0.5064 Y-1.0342
N3393 X0.5044 Y-1.0366
N3395 X0.4477 Y-1.0969
N3397 G3 X0.3659 Y-1.1903 R1.18 F7.79
N3399 X0.3343 Y-1.2588 R0.241 F7.08
N3401 G1 X0.576 F8.0
N3403 Y-1.224
N3405 X0.4308
N3407 G2 X0.4038 Y-1.177 R0.0312
N3409 X0.4559 Y-1.1136 R0.2615 F9.09
N3411 G3 X0.5365 Y-1.0297 R1.3503 F7.82
N3413 G1 X0.5376 Y-1.028 F8.0
N3415 X0.5292 Y-1.0225
N3417 G0 Z0.92
N3419
N3421 G91 G28 Z0
N3423 M05
N3425 G28 X0 Y0
N3427 M30
%