(When programming with cutter compensation on, make sure that you indicate in one of the first comments of your NC code the value to be stored in D register of the controller (e.g. cutter compensation value). Assume that D register loads tool radius.)

(=====================================================)
(start program)
(=====================================================)

G54 (coordinate system)
G90 (absolute mode)
G20 (inch mode)
G28 (return to machine zero position)

(only tool used in assignment is 0.5D endmill)
(feed rate is always 8 ipm, spindle speed is always 1200 rpm, only do one pass)
G41 (cutter compensation left)
M06 T01 (select tool)
G43 H01 (tool length offset)
D0.25 (cutter compensation value of 0.25")

G92 X10 Y5 Z12 (set part zero shift)

G00 X-0.5 Y0.5 Z0.25 (rapid move to position 2)
M03 S1200 (spindle start)
G01 Z-0.25 F8 (feed move to below part)

(=====================================================)
(outer profile)
(=====================================================)

G01 X0 Y0 (feed move to position 3)
G01 X2.438 (feed move to position 4)
G02 X3.001 Y-0.563 R0.563 (feed move to position 5)
G01 Y-0.938 (feed move to position 6)
G01 X1.625 Y-2.125 (feed move to position 7)
G01 X0.375 (feed move to position 8)
G02 X0 Y-1.75 R0.375 (feed move to position 9)
G01 Y-1.188 (feed move to position 10)
G01 X0.5 Y-0.625 (feed move to position 11)
G03 X1.125 Y0 R0.625 (feed move to position 12)
G01 Y1 (feed move to position 13)

G00 Z1 (rapid move to above part)

(=====================================================)
(inner profile)
(=====================================================)
G00 X1 Y-1.5 (rapid move to position 14)
G01 Z-0.25 (feed move to below part)
G01 X1.125 Y-1.75 (feed move to position 15)
G01 X1.5 (feed move to position 16)
G01 X2.063 Y-1.1498 (feed move to position 17)
G01 Y-0.375 (feed move to position 18)
G01 X1.427 (feed move to position 19)
G02 X0.75 Y-0.968 R1 (feed move to position 20)
G01 Y-1.75 (feed move to position 21)
G01 X1.125 (feed move to position 22)
G01 X1.25 Y-1.3 (feed move to position 23)
G00 Z1 (rapid move to above part)

(=====================================================)
(end program)
(=====================================================)
G28 (return to machine zero position)
M05 (spindle stop)
M30 (end program)