%
O0001(MME 4459 TOOLING.1)
N1(*********************************)
N3(* MACHINE TOOL   : TORMACH PCNC SERIES II MILL)
N5(* CUSTOMER       : MME)
N7(* COMENT         : )
N9(* JOB DECRIPTION : MME 4459 TOOLING.1)
N11(* JOB MATERIAL   : UMS-PLASTICS)
N13(* PART NAME      : PROJECT 2 SIDEA)
N15(* SEQUENCE       : MME 4459 TOOLING.1)
N17(* PROGRAMMED BY  : STUDENT)
N19(* DATE           : 03/07/24)
N21(* TIME           : 11:51:35)
N23(* TOTAL RUN TIME : 30.754    MIN.)
N25(*********************************)
N27 G0 G90 G17 G20 G94 G40 G49 G80 
N29 G91 G28 Z0
N31 M05
N33 G91 G28 Z0 
N35 G28 X0 Y0
N37 T01 M06 (1/4 ENDMILL  3FLT SH  .35 FL  1.4 TL)
N39 G0 G90 G56 X1.2409 Y-1.203 M3 S3500
N41 G43 H01 Z0.5 
N43 Z0.2
N45 G3 X1.2097 Y-1.2106 Z-0.1 I-0.045 J0.1161 F8.0
N47 X1.2058 Y-1.211 I-0.0138 J0.1237
N49 G1 X1.2097 Y-1.2106
N51 X1.2106 Y-1.2105
N53 G3 X1.2112 Y-1.1787 R0.0619
N55 X1.1881 Y-1.1711 R0.0208
N57 X1.1004 Y-1.1836 R0.7133
N59 G1 X1.0958 Y-1.1862
N61 X1.1038 Y-1.2643
N63 G3 X1.1262 Y-1.2813 R0.0254
N65 G1 X1.1948 Y-1.2871
N67 X1.2655 Y-1.2801
N69 G3 X1.2826 Y-1.2578 R0.0257
N71 X1.2881 Y-1.185 R2.5581
N73 G1 X1.2807 Y-1.1185
N75 G3 X1.2587 Y-1.1015 R0.0256
N77 X1.178 Y-1.0963 R0.9308
N79 G2 X1.0445 Y-1.1059 R1.3342
N81 G3 X1.0268 Y-1.135 R0.0271
N83 X1.0216 Y-1.2021 R0.2786
N85 G2 X1.03 Y-1.3388 R0.9792
N87 G3 X1.0516 Y-1.355 R0.0226
N89 G2 X1.1872 Y-1.3628 R0.7911
N91 G1 X1.2825 Y-1.3553
N93 X1.3397 Y-1.354
N95 G3 X1.356 Y-1.3324 R0.0226
N97 G2 X1.364 Y-1.194 R0.9649
N99 G3 X1.3566 Y-1.1149 R3.9133
N101 G1 X1.355 Y-1.0443
N103 G3 X1.3334 Y-1.0281 R0.0227
N105 G2 X1.1966 Y-1.0202 R0.8818
N107 G3 X1.1316 Y-1.0261 R0.4677
N109 G1 X0.9703 Y-1.0293
N111 G3 X0.9541 Y-1.0509 R0.0227
N113 G2 X0.9453 Y-1.1835 R0.6779
N115 G3 X0.9508 Y-1.2431 R0.4406
N117 G2 X0.954 Y-1.2962 R0.5353
N119 G1 X0.9552 Y-1.4135
N121 G3 X0.9768 Y-1.4297 R0.0226
N123 G2 X1.1251 Y-1.4316 R1.7769
N125 G1 X1.1926 Y-1.4388
N127 G2 X1.296 Y-1.4301 R1.2408
N129 G1 X1.4145 Y-1.4288
N131 G3 X1.4307 Y-1.4072 R0.0226
N133 G1 X1.4325 Y-1.2647
N135 X1.44 Y-1.1907
N137 X1.4316 Y-1.1111
N139 X1.4298 Y-0.9696
N141 G3 X1.4081 Y-0.9533 R0.0227
N143 G1 X1.2733 Y-0.9522
N145 X1.1929 Y-0.9442
N147 X1.1096 Y-0.9524
N149 X0.8955 Y-0.9542
N151 G3 X0.8793 Y-0.9758 R0.0225
N153 G1 X0.8784 Y-1.1081
N155 X0.8685 Y-1.1897
N157 X0.8785 Y-1.2802
N159 X0.8803 Y-1.4885
N161 G3 X0.9019 Y-1.5046 R0.0225
N163 G1 X1.1186 Y-1.5063
N165 X1.1915 Y-1.5155
N167 X1.2786 Y-1.5056
N169 X1.4895 Y-1.5037
N171 G3 X1.5057 Y-1.4801 R0.0227
N173 G1 X1.5072 Y-1.2712
N175 X1.5166 Y-1.1898
N177 X1.5065 Y-1.1074
N179 X1.5048 Y-0.8945
N181 G3 X1.4832 Y-0.8783 R0.0226
N183 G1 X1.2781 Y-0.8773
N185 X1.1917 Y-0.8674
N187 G2 X1.0937 Y-0.8778 R1.2833
N189 G1 X0.8205 Y-0.8794
N191 G3 X0.8044 Y-0.901 R0.0226
N193 G1 X0.8028 Y-1.1137
N195 X0.7908 Y-1.1914
N197 G3 X0.7973 Y-1.2282 R0.1296
N199 G2 X0.804 Y-1.2965 R0.4346
N201 G1 X0.8053 Y-1.5634
N203 G3 X0.8269 Y-1.5796 R0.0225
N205 G1 X1.112 Y-1.581
N207 X1.1913 Y-1.593
N209 G3 X1.24 Y-1.5848 R0.2456
N211 G2 X1.2964 Y-1.5801 R0.5521
N213 G1 X1.5645 Y-1.5787
N215 G3 X1.5806 Y-1.5571 R0.0225
N217 G1 X1.5819 Y-1.2776
N219 G2 X1.5936 Y-1.2023 R0.3512
N221 G3 X1.5887 Y-1.1592 R0.109
N223 G2 X1.5811 Y-1.093 R0.3504
N225 G1 X1.5797 Y-0.8196
N227 G3 X1.5581 Y-0.8034 R0.0225
N229 G1 X1.2761 Y-0.8019
N231 G2 X1.2014 Y-0.7903 R0.3934
N233 G3 X1.1557 Y-0.7962 R0.1306
N235 G2 X1.0934 Y-0.8028 R0.3683
N237 G1 X0.7456 Y-0.8043
N239 G3 X0.7294 Y-0.8259 R0.0225
N241 G1 X0.7281 Y-1.1066
N243 G2 X0.7132 Y-1.1813 R0.3342
N245 G3 X0.7217 Y-1.2346 R0.1154
N247 G2 X0.729 Y-1.2967 R0.2965
N249 G1 X0.7303 Y-1.6384
N251 G3 X0.7519 Y-1.6546 R0.0225
N253 G2 X1.1117 Y-1.6564 R16.2119
N255 X1.1823 Y-1.6711 R0.2971
N257 G3 X1.2332 Y-1.6629 R0.107
N259 G2 X1.2966 Y-1.6551 R0.2946
N261 G1 X1.6394 Y-1.6537
N263 G3 X1.6556 Y-1.6321 R0.0225
N265 G1 X1.6566 Y-1.2841
N267 G2 X1.6715 Y-1.2039 R0.2908
N269 G3 X1.664 Y-1.1523 R0.0993
N271 G2 X1.6561 Y-1.0928 R0.3479
N273 G1 X1.6547 Y-0.7446
N275 G3 X1.6331 Y-0.7284 R0.0225
N277 G1 X1.2831 Y-0.7273
N279 G2 X1.2014 Y-0.7122 R0.3337
N281 G3 X1.1422 Y-0.7224 R0.1753
N283 G1 X1.093 Y-0.7278
N285 X0.6706 Y-0.7294
N287 G3 X0.6544 Y-0.751 R0.0225
N289 G1 X0.6531 Y-1.1027
N291 G2 X0.6316 Y-1.1812 R0.229
N293 G3 X0.6387 Y-1.2191 R0.0495
N295 G2 X0.654 Y-1.2969 R0.2029
N297 X0.6547 Y-1.6872 R164.8797
N299 G3 X0.6773 Y-1.7253 R0.0412
N301 X0.7063 Y-1.7296 R0.0909
N303 G1 X1.1021 Y-1.7308
N305 G2 X1.181 Y-1.7518 R0.2346
N307 G3 X1.2239 Y-1.7438 R0.0578
N309 G2 X1.2969 Y-1.7301 R0.2032
N311 G1 X1.6964 Y-1.729
N313 G3 X1.7296 Y-1.6927 R0.0384
N315 G1 X1.7314 Y-1.2906
N317 G2 X1.7529 Y-1.2022 R0.2308
N319 G3 X1.7449 Y-1.1604 R0.0619
N321 G2 X1.7311 Y-1.0925 R0.226
N323 G1 X1.7295 Y-0.6862
N325 G3 X1.6825 Y-0.6534 R0.0421
N327 G2 X1.29 Y-0.6526 R32.4412
N329 X1.2038 Y-0.6305 R0.2151
N331 G3 X1.1656 Y-0.6373 R0.049
N333 G2 X1.0927 Y-0.6528 R0.2052
N335 G1 X0.6329 Y-0.6538
N337 G3 X0.5796 Y-0.707 R0.0504
N339 G1 X0.5785 Y-0.728
N341 X0.5778 Y-1.0923
N343 G2 X0.5343 Y-1.1833 R0.1307
N345 G1 X0.541 Y-1.2061
N347 G2 X0.578 Y-1.2971 R0.1296
N349 G1 X0.5795 Y-1.7067
N351 G3 X0.5961 Y-1.7522 R0.1138
N353 X0.7054 Y-1.8056 R0.1162
N355 G2 X1.0923 Y-1.8062 R55.2859
N357 X1.1833 Y-1.8486 R0.1307
N359 G1 X1.2061 Y-1.844
N361 G2 X1.2971 Y-1.8061 R0.13
N363 G1 X1.7067 Y-1.8047
N365 G3 X1.8065 Y-1.684 R0.1148
N367 G1 X1.8071 Y-1.2971
N369 G2 X1.844 Y-1.2061 R0.1302
N371 G1 X1.8505 Y-1.1833
N373 G2 X1.8071 Y-1.0923 R0.1317
N375 G1 X1.8061 Y-0.6827
N377 G3 X1.7522 Y-0.5945 R0.1131
N379 X1.684 Y-0.5774 R0.1167
N381 G2 X1.2971 Y-0.5769 R48.9275
N383 X1.1924 Y-0.5234 R0.1317
N385 X1.0923 Y-0.5768 R0.1306
N387 G1 X0.6827 Y-0.578
N389 G3 X0.5789 Y-0.6827 R0.1139
N391 X0.5785 Y-0.7246 R1.0987
N393 G1 X0.5824
N395 G0 Z0.5
N397 X0.8776 Y-1.2895
N399 Z0.1
N401 G3 X0.9102 Y-1.305 Z0.0856 I0.3489 J0.6954
N403 G1 X0.9167 Y-1.2971 Z0.0815
N405 X0.8918 Y-1.2516 Z0.0608
N407 X0.8889 Z0.0596
N409 X0.8752 Y-1.2634 Z0.0524
N411 X0.8647 Y-1.2729 Z0.0467
N413 Y-1.2829 Z0.0427
N415 G3 X0.9102 Y-1.305 Z0.0225 I0.3618 J0.6888
N417 G1 X0.9167 Y-1.2971 Z0.0184
N419 X0.8918 Y-1.2516 Z-0.0023
N421 X0.8889 Z-0.0035
N423 X0.8752 Y-1.2634 Z-0.0107
N425 X0.8647 Y-1.2729 Z-0.0164
N427 Y-1.2829 Z-0.0204
N429 G3 X0.9102 Y-1.305 Z-0.0406 I0.3618 J0.6888
N431 G1 X0.9167 Y-1.2971 Z-0.0447
N433 X0.8918 Y-1.2516 Z-0.0654
N435 X0.8889 Z-0.0666
N437 X0.8752 Y-1.2634 Z-0.0738
N439 X0.8647 Y-1.2729 Z-0.0795
N441 Y-1.2829 Z-0.0835
N443 G3 X0.9102 Y-1.305 Z-0.1037 I0.3618 J0.6888
N445 G1 X0.9167 Y-1.2971 Z-0.1078
N447 X0.8918 Y-1.2516 Z-0.1285
N449 X0.8889 Z-0.1297
N451 X0.8752 Y-1.2634 Z-0.1369
N453 X0.8647 Y-1.2729 Z-0.1426
N455 Y-1.2829 Z-0.1466
N457 G3 X0.9102 Y-1.305 Z-0.1668 I0.3618 J0.6888
N459 G1 X0.9167 Y-1.2971 Z-0.1709
N461 X0.8918 Y-1.2516 Z-0.1916
N463 X0.8889 Z-0.1928
N465 X0.8752 Y-1.2634 Z-0.2
N467 X0.8647 Y-1.2729
N469 Y-1.2829
N471 G3 X0.9102 Y-1.305 R0.778
N473 G1 X0.9167 Y-1.2971
N475 X0.8918 Y-1.2516
N477 G3 X0.8875 Y-1.2523 R0.0049
N479 G1 X0.8752 Y-1.2634
N481 X0.8778 Y-1.2663
N483 G0 Z0.5
N485 X0.8958 Y-1.2589
N487 Z0.0
N489 G1 X0.8918 Y-1.2516 Z-0.0033
N491 X0.8889 Z-0.0045
N493 X0.8752 Y-1.2634 Z-0.0117
N495 X0.8647 Y-1.2729 Z-0.0174
N497 Y-1.2829 Z-0.0214
N499 G3 X0.9102 Y-1.305 Z-0.0416 I0.3618 J0.6888
N501 G1 X0.9167 Y-1.2971 Z-0.0457
N503 X0.8918 Y-1.2516 Z-0.0664
N505 X0.8889 Z-0.0676
N507 X0.8752 Y-1.2634 Z-0.0748
N509 X0.8647 Y-1.2729 Z-0.0805
N511 Y-1.2829 Z-0.0845
N513 G3 X0.9102 Y-1.305 Z-0.1047 I0.3618 J0.6888
N515 G1 X0.9167 Y-1.2971 Z-0.1088
N517 X0.8918 Y-1.2516 Z-0.1295
N519 X0.8889 Z-0.1307
N521 X0.8752 Y-1.2634 Z-0.1379
N523 X0.8647 Y-1.2729 Z-0.1436
N525 Y-1.2829 Z-0.1476
N527 G3 X0.9102 Y-1.305 Z-0.1678 I0.3618 J0.6888
N529 G1 X0.9167 Y-1.2971 Z-0.1719
N531 X0.8918 Y-1.2516 Z-0.1926
N533 X0.8889 Z-0.1938
N535 X0.8752 Y-1.2634 Z-0.201
N537 X0.8647 Y-1.2729
N539 Y-1.2829
N541 G3 X0.9102 Y-1.305 R0.778
N543 G1 X0.9167 Y-1.2971
N545 X0.8918 Y-1.2516
N547 G3 X0.8875 Y-1.2523 R0.0049
N549 G1 X0.8752 Y-1.2634
N551 X0.8778 Y-1.2663
N553 G0 Z0.5
N555 X1.0232 Y-1.3845
N557 Z0.1
N559 G1 X1.253 Y-1.3098 Z0.0033
N561 X1.0113 Y-1.3883 Z-0.0983
N563 X1.253 Y-1.3098 Z-0.2
N565 G2 X1.2346 Y-1.2061 R0.1394
N567 G1 X1.268 Y-1.0468
N569 X1.2246 Y-1.024
N571 X1.2061 Y-1.0105
N573 G3 X1.1606 Y-1.0347 R0.528
N575 G1 X1.1378 Y-1.0425
N577 X1.1364 Y-1.0468
N579 X1.1698 Y-1.2061
N581 G2 X1.0468 Y-1.3717 R0.1361
N583 X0.9956 Y-1.3654 R0.157
N585 X1.024 Y-1.4145 R0.1909
N587 G1 X1.0468 Y-1.4187
N589 X1.1378 Y-1.401
N591 G2 X1.1975 Y-1.4109 R0.1852
N593 G1 X1.2068
N595 G2 X1.2971 Y-1.4059 R0.1547
N597 G1 X1.3654 Y-1.4202
N599 X1.3818 Y-1.4109
N601 G2 X1.4088 Y-1.3654 R0.1916
N603 X1.253 Y-1.3098 R0.1366
N605 G1 X1.2498 Y-1.312
N607 G0 Z0.5
N609 X1.2475 Y-1.3116
N611 Z0.0
N613 G1 X1.0113 Y-1.3883 Z-0.0993
N615 X1.253 Y-1.3098 Z-0.201
N617 G2 X1.2346 Y-1.2061 R0.1394
N619 G1 X1.268 Y-1.0468
N621 X1.2246 Y-1.024
N623 X1.2061 Y-1.0105
N625 G3 X1.1606 Y-1.0347 R0.528
N627 G1 X1.1378 Y-1.0425
N629 X1.1364 Y-1.0468
N631 X1.1698 Y-1.2061
N633 G2 X1.0468 Y-1.3717 R0.1361
N635 X0.9956 Y-1.3654 R0.157
N637 X1.024 Y-1.4145 R0.1909
N639 G1 X1.0468 Y-1.4187
N641 X1.1378 Y-1.401
N643 G2 X1.1975 Y-1.4109 R0.1852
N645 G1 X1.2068
N647 G2 X1.2971 Y-1.4059 R0.1547
N649 G1 X1.3654 Y-1.4202
N651 X1.3818 Y-1.4109
N653 G2 X1.4088 Y-1.3654 R0.1916
N655 X1.253 Y-1.3098 R0.1366
N657 G1 X1.2498 Y-1.312
N659 G0 Z0.5
N661 X1.5286 Y-1.2608
N663 Z0.1
N665 G1 X1.5247 Y-1.2558 Z0.0975
N667 X1.5154 Y-1.2516 Z0.0934
N669 X1.5125 Z0.0923
N671 G2 X1.4877 Y-1.2971 Z0.0715 I-0.9666 J0.4991
N673 G1 X1.5019 Y-1.3014 Z0.0655
N675 G3 X1.5247 Y-1.29 Z0.0554 I-0.1024 J0.2333
N677 G1 X1.5396 Y-1.2743 Z0.0467
N679 X1.5309 Y-1.2636 Z0.0412
N681 X1.5247 Y-1.2558 Z0.0372
N683 X1.5154 Y-1.2516 Z0.0331
N685 X1.5125 Z0.032
N687 G2 X1.4877 Y-1.2971 Z0.0112 I-0.9666 J0.4991
N689 G1 X1.5019 Y-1.3014 Z0.0053
N691 G3 X1.5247 Y-1.29 Z-0.0049 I-0.1024 J0.2333
N693 G1 X1.5396 Y-1.2743 Z-0.0136
N695 X1.5309 Y-1.2636 Z-0.0191
N697 X1.5247 Y-1.2558 Z-0.0231
N699 X1.5154 Y-1.2516 Z-0.0272
N701 X1.5125 Z-0.0283
N703 G2 X1.4877 Y-1.2971 Z-0.0491 I-0.9666 J0.4991
N705 G1 X1.5019 Y-1.3014 Z-0.055
N707 G3 X1.5247 Y-1.29 Z-0.0652 I-0.1024 J0.2333
N709 G1 X1.5396 Y-1.2743 Z-0.0739
N711 X1.5309 Y-1.2636 Z-0.0794
N713 X1.5247 Y-1.2558 Z-0.0834
N715 X1.5154 Y-1.2516 Z-0.0875
N717 X1.5125 Z-0.0886
N719 G2 X1.4877 Y-1.2971 Z-0.1094 I-0.9666 J0.4991
N721 G1 X1.5019 Y-1.3014 Z-0.1153
N723 G3 X1.5247 Y-1.29 Z-0.1255 I-0.1024 J0.2333
N725 G1 X1.5396 Y-1.2743 Z-0.1342
N727 X1.5309 Y-1.2636 Z-0.1397
N729 X1.5247 Y-1.2558 Z-0.1437
N731 X1.5154 Y-1.2516 Z-0.1478
N733 X1.5125 Z-0.1489
N735 G2 X1.4877 Y-1.2971 Z-0.1697 I-0.9666 J0.4991
N737 G1 X1.5019 Y-1.3014 Z-0.1756
N739 G3 X1.5247 Y-1.29 Z-0.1858 I-0.1024 J0.2333
N741 G1 X1.5396 Y-1.2743 Z-0.1945
N743 X1.5309 Y-1.2636 Z-0.2
N745 G3 X1.5125 Y-1.2516 R0.0209
N747 G2 X1.4877 Y-1.2971 R1.0879
N749 G1 X1.5019 Y-1.3014
N751 G3 X1.5396 Y-1.2743 R0.0686
N753 G1 X1.5309 Y-1.2636
N755 X1.5279 Y-1.2661
N757 G0 Z0.5
N759 X1.5116 Y-1.2969
N761 Z0.0
N763 G3 X1.5247 Y-1.29 Z-0.0059 I-0.1121 J0.2288
N765 G1 X1.5396 Y-1.2743 Z-0.0146
N767 X1.5309 Y-1.2636 Z-0.0201
N769 X1.5247 Y-1.2558 Z-0.0241
N771 X1.5154 Y-1.2516 Z-0.0282
N773 X1.5125 Z-0.0293
N775 G2 X1.4877 Y-1.2971 Z-0.0501 I-0.9666 J0.4991
N777 G1 X1.5019 Y-1.3014 Z-0.056
N779 G3 X1.5247 Y-1.29 Z-0.0662 I-0.1024 J0.2333
N781 G1 X1.5396 Y-1.2743 Z-0.0749
N783 X1.5309 Y-1.2636 Z-0.0804
N785 X1.5247 Y-1.2558 Z-0.0844
N787 X1.5154 Y-1.2516 Z-0.0885
N789 X1.5125 Z-0.0896
N791 G2 X1.4877 Y-1.2971 Z-0.1104 I-0.9666 J0.4991
N793 G1 X1.5019 Y-1.3014 Z-0.1163
N795 G3 X1.5247 Y-1.29 Z-0.1265 I-0.1024 J0.2333
N797 G1 X1.5396 Y-1.2743 Z-0.1352
N799 X1.5309 Y-1.2636 Z-0.1407
N801 X1.5247 Y-1.2558 Z-0.1447
N803 X1.5154 Y-1.2516 Z-0.1488
N805 X1.5125 Z-0.1499
N807 G2 X1.4877 Y-1.2971 Z-0.1707 I-0.9666 J0.4991
N809 G1 X1.5019 Y-1.3014 Z-0.1766
N811 G3 X1.5247 Y-1.29 Z-0.1868 I-0.1024 J0.2333
N813 G1 X1.5396 Y-1.2743 Z-0.1955
N815 X1.5309 Y-1.2636 Z-0.201
N817 G3 X1.5125 Y-1.2516 R0.0209
N819 G2 X1.4877 Y-1.2971 R1.0879
N821 G1 X1.5019 Y-1.3014
N823 G3 X1.5396 Y-1.2743 R0.0686
N825 G1 X1.5309 Y-1.2636
N827 X1.5279 Y-1.2661
N829 Z-0.0606 F15.0
N831 X1.1801 Y-1.3548
N833 Z-0.1456
N835 Z-0.185 F4.0
N837 X0.9305 Y-1.305 F8.0
N839 G3 X0.9143 Y-1.3232 R0.0184
N841 G1 X0.9152 Y-1.4535
N843 G3 X0.9368 Y-1.4697 R0.0225
N845 G1 X1.4545 Y-1.4688
N847 G3 X1.4707 Y-1.4472 R0.0225
N849 G1 X1.4698 Y-0.9295
N851 G3 X1.4482 Y-0.9133 R0.0225
N853 G1 X0.9305 Y-0.9142
N855 G3 X0.9143 Y-0.9358 R0.0225
N857 G1 Y-1.2916
N859 Z-0.0606 F15.0
N861 X1.2023 Y-1.1177
N863 Z-0.1456
N865 Z-0.185 F4.0
N867 G2 X1.1458 Y-1.1389 R0.2289 F8.0
N869 G3 X1.1393 Y-1.1608 R0.0384
N871 G1 X1.1397 Y-1.2267
N873 G3 X1.1555 Y-1.2447 R0.0193
N875 G1 X1.1716
N877 Z-0.0606 F15.0
N879 X1.1927 Y-1.0738
N881 Z-0.1456
N883 Z-0.185 F4.0
N885 X1.1388 Y-1.0633 F8.0
N887 X1.0805 Y-1.0642
N889 G3 X1.0643 Y-1.0858 R0.0225
N891 G1 X1.0652 Y-1.3035
N893 G3 X1.0868 Y-1.3197 R0.0225
N895 G1 X1.1437
N897 Z-0.0606 F15.0
N899 X1.2022 Y-1.3213
N901 Z-0.1456
N903 Z-0.185 F4.0
N905 X1.228 Y-1.2578 F8.0
N907 G2 X1.2415 Y-1.2426 R0.0334
N909 G3 X1.2457 Y-1.2222 R0.0511
N911 G1 Y-1.1572
N913 Z-0.0606 F15.0
N915 X1.2211 Y-1.3503
N917 Z-0.1456
N919 Z-0.185 F4.0
N921 G2 X1.2568 Y-1.3252 R0.1388 F8.0
N923 X1.3014 Y-1.3194 R0.0994
N925 G3 X1.3207 Y-1.2972 R0.0225
N927 G1 X1.3198 Y-1.0795
N929 G3 X1.2982 Y-1.0633 R0.0225
N931 G1 X1.2654
N933 Z-0.0606 F15.0
N935 X1.2245 Y-1.3547
N937 Z-0.1456
N939 Z-0.185 F4.0
N941 X1.3794 Y-1.3657 F8.0
N943 G3 X1.3957 Y-1.3453 R0.0208
N945 G1 X1.3948 Y-1.0045
N947 G3 X1.3732 Y-0.9883 R0.0225
N949 G1 X1.0055 Y-0.9892
N951 G3 X0.9893 Y-1.0108 R0.0225
N953 G1 X0.9896 Y-1.3764
N955 G3 X1.0016 Y-1.3947 R0.02
N957 G1 X1.0139
N959 Z-0.0606 F15.0
N961 X1.2245 Y-1.3547
N963 Z-0.1456
N965 Z-0.185 F4.0
N967 X1.3928 Y-1.3947 F8.0
N969 G3 X1.3957 Y-1.3854 R0.0093
N971 G0 Z0.5
N973 X0.8601 Y-1.6175
N975 Z0.1
N977 G3 X0.7998 Y-1.5842 Z-0.185 I0.0278 J0.1214
N979 I0.0881 J0.0881
N981 G1 X0.8393 Y-1.5447
N983 X1.5295 Y-1.5438
N985 G3 X1.5457 Y-1.5222 R0.0225
N987 G1 X1.5448 Y-0.8545
N989 G3 X1.5232 Y-0.8383 R0.0225
N991 G1 X0.8555 Y-0.8392
N993 G3 X0.8393 Y-0.8608 R0.0225
N995 G1 X0.8402 Y-1.6035
N997 G3 X0.8618 Y-1.6197 R0.0225
N999 G1 X1.6045 Y-1.6188
N1001 G3 X1.6207 Y-1.5972 R0.0225
N1003 G1 X1.6198 Y-0.7795
N1005 G3 X1.5982 Y-0.7633 R0.0225
N1007 G1 X0.7805 Y-0.7642
N1009 G3 X0.7643 Y-0.7858 R0.0225
N1011 G1 X0.7652 Y-1.6035
N1013 G3 X0.7868 Y-1.6197 R0.0225
N1015 G1 X0.8263 Y-1.6205
N1017 G2 X0.8552 Y-1.6356 R0.0543
N1019 G1 X0.9067 Y-1.6859
N1021 G3 X0.9344 Y-1.6957 R0.0558
N1023 G1 X1.684
N1025 X1.6967 Y-1.684
N1027 Y-0.7054
N1029 X1.684 Y-0.6873
N1031 X0.7054
N1033 X0.6883 Y-0.7054
N1035 Y-1.684
N1037 X0.7054 Y-1.6957
N1039 X0.9344
N1041 Y-1.6917
N1043 G0 Z0.5
N1045 X0.1764 Y-2.3798
N1047 Z0.2
N1049 G3 X0.1445 Y-2.3839 Z-0.1 I-0.0319 J0.1204
N1051 Y-2.1349 R0.1245
N1053 X0.02 Y-2.2595 R0.1245
N1055 X0.1445 Y-2.384 R0.1245
N1057 G1 X2.386 Y-2.383
N1059 X2.385 Y0.001
N1061 X-0.001 Y0.0
N1063 X0.0 Y-2.384
N1065 X0.1445
N1067 Y-2.3801
N1069 G0 Z0.5
N1071 Y-2.384
N1073 Z-0.0606
N1075 G1 Z-0.1 F4.0
N1077 X0.2119 Y-2.3178 F8.0
N1079 G2 X0.243 Y-2.308 R0.0543
N1081 G1 X0.3489 Y-2.3075
N1083 G2 X0.144 Y-2.1345 R0.7099
N1085 X0.075 Y-2.0328 R0.5988
N1087 G1 Y-2.0703
N1089 X0.1669 Y-2.0376
N1091 G2 X0.1221 Y-1.957 R0.4246
N1093 G1 X0.1022 Y-1.9115
N1095 X0.0809 Y-1.8433
N1097 X0.0681 Y-1.775
N1099 G2 X0.0624 Y-1.684 R1.0991
N1101 G1 X0.0626 Y-1.2971
N1103 G2 X0.1138 Y-1.1931 R0.132
N1105 G1 Y-1.1899
N1107 G2 X0.0624 Y-1.0695 R0.1359
N1109 G1 X0.0631 Y-0.6827
N1111 X0.0683 Y-0.6078
N1113 G3 X0.0795 Y-0.5461 R0.803
N1115 G2 X0.2048 Y-0.2942 R0.6378
N1117 G1 X0.2217 Y-0.2731
N1119 X0.2731 Y-0.2217
N1121 X0.3353 Y-0.1733
N1123 X0.3471 Y-0.0765
N1125 X0.3496 Y-0.075
N1127 X0.075
N1129 Y-0.3505
N1131 G2 X0.2507 Y-0.1421 R0.7151
N1133 X0.3472 Y-0.0765 R0.6401
N1135 G1 X0.3353 Y-0.1733
N1137 G2 X0.6036 Y-0.0683 R0.6176
N1139 X0.6827 Y-0.0617 R0.8277
N1141 G1 X1.0923 Y-0.0619
N1143 G2 X1.1917 Y-0.1138 R0.1319
N1145 G1 X1.1933
N1147 G2 X1.2971 Y-0.0618 R0.1304
N1149 G1 X1.7067 Y-0.0624
N1151 G2 X2.0025 Y-0.1442 R0.6238
N1153 X2.1986 Y-0.3182 R0.6043
N1155 G1 X2.2958 Y-0.3264
N1157 X2.31 Y-0.3508
N1159 Y-0.075
N1161 X2.0354
N1163 G2 X2.2958 Y-0.3264 R0.7007
N1165 G1 X2.1986 Y-0.3182
N1167 G2 X2.216 Y-0.3413 R0.2648
N1169 G1 X2.2552 Y-0.4096
N1171 G2 X2.322 Y-0.6827 R0.6293
N1173 G1 X2.3211 Y-1.1046
N1175 G2 X2.2756 Y-1.1864 R0.1343
N1177 G1 Y-1.1966
N1179 G2 X2.3219 Y-1.2971 R0.1263
N1181 G1 X2.322 Y-1.684
N1183 G2 X2.2529 Y-1.9792 R0.6352
N1185 X2.2073 Y-2.0539 R1.0338
N1187 G1 X2.1618 Y-2.1115
N1189 X2.1115 Y-2.1618
N1191 G2 X2.0526 Y-2.2082 R2.3255
N1193 G1 X2.0401 Y-2.3049
N1195 X2.0346 Y-2.308
N1197 X2.31
N1199 Y-2.0323
N1201 G2 X2.267 Y-2.101 R1.5338
N1203 G1 X2.2156 Y-2.1653
N1205 X2.159 Y-2.2212
N1207 G2 X2.0556 Y-2.296 R0.8743
N1209 G1 X2.0401 Y-2.3049
N1211 X2.0526 Y-2.2082
N1213 G2 X1.775 Y-2.3156 R0.6334
N1215 X1.684 Y-2.3213 R1.1002
N1217 G1 X1.2879 Y-2.3211
N1219 G2 X1.1984 Y-2.2756 R0.1333
N1221 G1 X1.1866
N1223 G2 X1.0695 Y-2.3213 R0.1356
N1225 G1 X0.6825 Y-2.3211
N1227 G2 X0.5689 Y-2.3085 R0.5743
N1229 X0.1904 Y-2.0708 R0.6308
N1231 G1 X0.1669 Y-2.0376
N1233 X0.075 Y-2.0703
N1235 Y-2.308
N1237 X0.3498
N1239 X0.3489 Y-2.3075
N1241 G0 Z0.5
N1243 X0.0032 Y-0.1763
N1245 Z0.1
N1247 G3 X-0.0009 Y-0.1444 Z-0.2 I0.1204 J0.0319
N1249 Y-0.1405 I0.1245 J0.0
N1251 G1 X-0.001 Y-0.1444
N1253 X0.0 Y-2.384
N1255 X2.386 Y-2.383
N1257 X2.385 Y0.001
N1259 X-0.001 Y0.0
N1261 Y-0.1444
N1263 X0.0029
N1265 G0 Z0.5
N1267 X-0.001
N1269 Z-0.1606
N1271 G1 Z-0.2 F4.0
N1273 X0.0652 Y-0.2118 F8.0
N1275 G2 X0.075 Y-0.2429 R0.0543
N1277 G1 X0.0761 Y-0.3485
N1279 G2 X0.25 Y-0.1423 R0.7121
N1281 X0.3251 Y-0.0893 R0.5721
N1283 G1 X0.3169 Y-0.1865
N1285 G2 X0.5689 Y-0.0742 R0.6294
N1287 X0.6827 Y-0.0614 R0.5883
N1289 G1 X1.7067 Y-0.0621
N1291 G2 X1.8888 Y-0.0934 R0.6003
N1293 X1.957 Y-0.1204 R0.336
N1295 X2.2127 Y-0.3363 R0.6369
N1297 G1 X2.31 Y-0.3502
N1299 Y-0.075
N1301 X2.0358
N1303 G2 X2.3094 Y-0.3492 R0.7023
N1305 G1 X2.2127 Y-0.3363
N1307 G2 X2.3223 Y-0.6827 R0.6535
N1309 G3 Y-1.684 R999.9999
N1311 G2 X2.2529 Y-1.9796 R0.6327
N1313 G1 X2.2121 Y-2.0481
N1315 X2.1618 Y-2.1118
N1317 X2.1118 Y-2.1618
N1319 G2 X2.0522 Y-2.2087 R2.2303
N1321 G1 X2.0398 Y-2.3054
N1323 X2.0351 Y-2.308
N1325 X2.31
N1327 Y-2.0329
N1329 X2.272 Y-2.0949
N1331 X2.2156 Y-2.1656
N1333 X2.1595 Y-2.221
N1335 X2.0882 Y-2.2759
N1337 G2 X2.0398 Y-2.3054 R1.0602
N1339 G1 X2.0522 Y-2.2087
N1341 G2 X1.8433 Y-2.3031 R0.6653
N1343 G1 X1.775 Y-2.3159
N1345 G2 X1.684 Y-2.3216 R1.1004
N1347 G1 X0.6599 Y-2.3202
N1349 G2 X0.5689 Y-2.3088 R0.498
N1351 X0.167 Y-2.0384 R0.6283
N1353 G1 X0.075 Y-2.0707
N1355 Y-2.308
N1357 X0.3492
N1359 G2 X0.1706 Y-2.1664 R0.7341
N1361 X0.075 Y-2.0332 R0.7294
N1363 G1 Y-2.0707
N1365 X0.167 Y-2.0384
N1367 G2 X0.0948 Y-1.8888 R0.6418
N1369 G1 X0.0806 Y-1.8433
N1371 X0.0678 Y-1.775
N1373 G2 X0.0621 Y-1.684 R1.1
N1375 G1 X0.0628 Y-0.6827
N1377 X0.0671 Y-0.6144
N1379 X0.0792 Y-0.5461
N1381 G2 X0.1138 Y-0.4447 R0.7434
N1383 X0.1417 Y-0.3869 R0.503
N1385 X0.2958 Y-0.2029 R0.6381
N1387 G1 X0.3169 Y-0.1865
N1389 X0.3251 Y-0.0893
N1391 X0.349 Y-0.075
N1393 X0.075
N1395 Y-0.3501
N1397 X0.0761 Y-0.3485
N1399 G0 Z0.5
N1401 X0.007 Y-0.1882
N1403 Z0.0
N1405 G3 X-0.0009 Y-0.1444 Z-0.295 I0.1166 J0.0438
N1407 Y-0.1405 I0.1245 J0.0
N1409 G1 X-0.001 Y-0.1444
N1411 X0.0 Y-2.384
N1413 X2.386 Y-2.383
N1415 X2.385 Y0.001
N1417 X-0.001 Y0.0
N1419 Y-0.1444
N1421 X0.0029
N1423 G0 Z0.5
N1425 X-0.001
N1427 Z-0.2556
N1429 G1 Z-0.295 F4.0
N1431 X0.0652 Y-0.2118 F8.0
N1433 G2 X0.075 Y-0.2429 R0.0543
N1435 G1 X0.0761 Y-0.3485
N1437 G2 X0.25 Y-0.1423 R0.7121
N1439 X0.3251 Y-0.0893 R0.5721
N1441 G1 X0.3169 Y-0.1865
N1443 G2 X0.5689 Y-0.0742 R0.6294
N1445 X0.6827 Y-0.0614 R0.5883
N1447 G1 X1.7067 Y-0.0621
N1449 G2 X1.8888 Y-0.0934 R0.6003
N1451 X1.957 Y-0.1204 R0.336
N1453 X2.2127 Y-0.3363 R0.6369
N1455 G1 X2.31 Y-0.3502
N1457 Y-0.075
N1459 X2.0358
N1461 G2 X2.3094 Y-0.3492 R0.7023
N1463 G1 X2.2127 Y-0.3363
N1465 G2 X2.3223 Y-0.6827 R0.6535
N1467 G3 Y-1.684 R999.9999
N1469 G2 X2.2529 Y-1.9796 R0.6327
N1471 G1 X2.2121 Y-2.0481
N1473 X2.1618 Y-2.1118
N1475 X2.1118 Y-2.1618
N1477 G2 X2.0522 Y-2.2087 R2.2303
N1479 G1 X2.0398 Y-2.3054
N1481 X2.0351 Y-2.308
N1483 X2.31
N1485 Y-2.0329
N1487 X2.272 Y-2.0949
N1489 X2.2156 Y-2.1656
N1491 X2.1595 Y-2.221
N1493 X2.0882 Y-2.2759
N1495 G2 X2.0398 Y-2.3054 R1.0602
N1497 G1 X2.0522 Y-2.2087
N1499 G2 X1.8433 Y-2.3031 R0.6653
N1501 G1 X1.775 Y-2.3159
N1503 G2 X1.684 Y-2.3216 R1.1004
N1505 G1 X0.6599 Y-2.3202
N1507 G2 X0.5689 Y-2.3088 R0.498
N1509 X0.167 Y-2.0384 R0.6283
N1511 G1 X0.075 Y-2.0707
N1513 Y-2.308
N1515 X0.3492
N1517 G2 X0.1706 Y-2.1664 R0.7341
N1519 X0.075 Y-2.0332 R0.7294
N1521 G1 Y-2.0707
N1523 X0.167 Y-2.0384
N1525 G2 X0.0948 Y-1.8888 R0.6418
N1527 G1 X0.0806 Y-1.8433
N1529 X0.0678 Y-1.775
N1531 G2 X0.0621 Y-1.684 R1.1
N1533 G1 X0.0628 Y-0.6827
N1535 X0.0671 Y-0.6144
N1537 X0.0792 Y-0.5461
N1539 G2 X0.1138 Y-0.4447 R0.7434
N1541 X0.1417 Y-0.3869 R0.503
N1543 X0.2958 Y-0.2029 R0.6381
N1545 G1 X0.3169 Y-0.1865
N1547 X0.3251 Y-0.0893
N1549 X0.349 Y-0.075
N1551 X0.075
N1553 Y-0.3501
N1555 X0.0761 Y-0.3485
N1557 G0 Z0.5
N1559 X2.4759 Y-2.0749
N1561 Z0.2
N1563 G1 Z-0.1 F4.0
N1565 X2.2759 F8.0
N1567 G3 X2.1344 Y-2.1334 R0.2 F6.0
N1569 G2 X1.6925 Y-2.3165 R0.625 F10.0
N1571 G1 X0.6925 F8.0
N1573 G2 X0.0675 Y-1.6915 R0.625 F10.0
N1575 G1 Y-0.6915 F8.0
N1577 G2 X0.6925 Y-0.0665 R0.625 F10.0
N1579 G1 X1.6925 F8.0
N1581 G2 X2.3175 Y-0.6915 R0.625 F10.0
N1583 G1 Y-1.6915 F8.0
N1585 G2 X2.1344 Y-2.1334 R0.625 F10.0
N1587 G3 X2.0759 Y-2.2749 R0.2 F6.0
N1589 G1 Y-2.4749 F8.0
N1591 X2.4759 Y-2.0749
N1593 Z-0.2 F4.0
N1595 X2.2759 F8.0
N1597 G3 X2.1344 Y-2.1334 R0.2 F6.0
N1599 G2 X1.6925 Y-2.3165 R0.625 F10.0
N1601 G1 X0.6925 F8.0
N1603 G2 X0.0675 Y-1.6915 R0.625 F10.0
N1605 G1 Y-0.6915 F8.0
N1607 G2 X0.6925 Y-0.0665 R0.625 F10.0
N1609 G1 X1.6925 F8.0
N1611 G2 X2.3175 Y-0.6915 R0.625 F10.0
N1613 G1 Y-1.6915 F8.0
N1615 G2 X2.1344 Y-2.1334 R0.625 F10.0
N1617 G3 X2.0759 Y-2.2749 R0.2 F6.0
N1619 G1 Y-2.4749 F8.0
N1621 X2.4759 Y-2.0749
N1623 Z-0.3 F4.0
N1625 X2.2759 F8.0
N1627 G3 X2.1344 Y-2.1334 R0.2 F6.0
N1629 G2 X1.6925 Y-2.3165 R0.625 F10.0
N1631 G1 X0.6925 F8.0
N1633 G2 X0.0675 Y-1.6915 R0.625 F10.0
N1635 G1 Y-0.6915 F8.0
N1637 G2 X0.6925 Y-0.0665 R0.625 F10.0
N1639 G1 X1.6925 F8.0
N1641 G2 X2.3175 Y-0.6915 R0.625 F10.0
N1643 G1 Y-1.6915 F8.0
N1645 G2 X2.1344 Y-2.1334 R0.625 F10.0
N1647 G3 X2.0759 Y-2.2749 R0.2 F6.0
N1649 G1 Y-2.4749 F8.0
N1651 G0 Z0.5
N1653 X0.8703 Y-0.8967
N1655 Z0.01
N1657 G1 Z-0.19 F4.0
N1659 X0.8603 F8.0
N1661 Y-0.9975
N1663 X0.8619 Y-1.0063
N1665 X0.8663 Y-1.0127
N1667 X0.8732 Y-1.0165
N1669 X0.8819 Y-1.0178
N1671 X0.8914 Y-1.0162
N1673 X0.8985 Y-1.012
N1675 X0.9035 Y-1.005
N1677 X0.9067 Y-0.9955
N1679 X0.9091 Y-0.9847
N1681 X0.9161 Y-0.9627
N1683 X0.9203 Y-0.9515
N1685 X0.9252 Y-0.9407
N1687 X0.937 Y-0.9199
N1689 X0.9435 Y-0.9098
N1691 X0.9506 Y-0.9002
N1693 X0.9665 Y-0.8823
N1695 X0.9771 Y-0.8712
N1697 X0.978 Y-0.8685
N1699 Y-0.8658
N1701 X0.977 Y-0.8632
N1703 X0.9752 Y-0.8611
N1705 X0.9728 Y-0.8597
N1707 X0.97 Y-0.8592
N1709 X0.8828
N1711 X0.8738 Y-0.8606
N1713 X0.8667 Y-0.8645
N1715 X0.862 Y-0.8705
N1717 X0.8604 Y-0.878
N1719 Y-0.8967
N1721 G3 X0.919 Y-1.0381 Z-0.1456 I0.2 J0.0001 F6.0
N1723 G1 X1.0605 Y-1.1794 Z-0.0187 F8.0
N1725 Z0.01 F15.0
N1727 X1.0899 Y-0.8148
N1729 Z-0.0187 F4.0
N1731 X1.2899 Y-0.8159 Z-0.1456 F8.0
N1733 G2 X1.431 Y-0.8753 Z-0.19 I-0.0011 J-0.2 F10.0
N1735 G1 X1.4413 Y-0.8857 F8.0
N1737 X1.4513 Y-0.8967
N1739 X1.4602 Y-0.9085
N1741 X1.4681 Y-0.921
N1743 X1.4754 Y-0.9338
N1745 X1.4822 Y-0.9469
N1747 X1.4878 Y-0.9606
N1749 X1.4922 Y-0.9748
N1751 X1.5002 Y-1.0038
N1753 X1.5038 Y-1.0109
N1755 X1.5081 Y-1.0157
N1757 X1.5127 Y-1.0175
N1759 X1.517 Y-1.0156
N1761 X1.5208 Y-1.0105
N1763 X1.5234 Y-1.0034
N1765 X1.5244 Y-0.9952
N1767 X1.524 Y-0.8772
N1769 X1.5227 Y-0.873
N1771 X1.5206 Y-0.8691
N1773 X1.5178 Y-0.8657
N1775 X1.5144 Y-0.8629
N1777 X1.5105 Y-0.8608
N1779 X1.5063 Y-0.8595
N1781 X1.5019 Y-0.8591
N1783 X1.435
N1785 X1.4298 Y-0.86
N1787 X1.425 Y-0.8621
N1789 X1.4219 Y-0.8647
N1791 X1.422 Y-0.8669
N1793 X1.4252 Y-0.8718
N1795 X1.4264 Y-0.8788
N1797 X1.4259 Y-0.8873
N1799 X1.4235 Y-0.8964
N1801 X1.4077 Y-0.9418
N1803 X1.4067 Y-0.9484
N1805 Y-0.9551
N1807 X1.4076 Y-0.9618
N1809 X1.4094 Y-0.9683
N1811 X1.4173 Y-0.9861
N1813 X1.4197 Y-0.994
N1815 X1.4253 Y-1.0166
N1817 X1.4264 Y-1.0252
N1819 X1.4267 Y-1.0339
N1821 X1.4263 Y-1.0552
N1823 X1.4257 Y-1.0605
N1825 X1.4239 Y-1.0711
N1827 X1.416 Y-1.1108
N1829 X1.4169 Y-1.1134
N1831 X1.4185 Y-1.1156
N1833 X1.4208 Y-1.1172
N1835 X1.4235 Y-1.1179
N1837 X1.4262 Y-1.1177
N1839 X1.4312 Y-1.115
N1841 X1.4484 Y-1.106
N1843 X1.455 Y-1.1029
N1845 X1.4618 Y-1.1004
N1847 X1.4806 Y-1.0955
N1849 X1.4877 Y-1.094
N1851 X1.4949 Y-1.0931
N1853 X1.5143 Y-1.0925
N1855 X1.5215 Y-1.0926
N1857 X1.5286 Y-1.0933
N1859 X1.5357 Y-1.0945
N1861 X1.5557 Y-1.0991
N1863 X1.5824 Y-1.108
N1865 X1.5861
N1867 X1.5896 Y-1.107
N1869 X1.5929 Y-1.1053
N1871 X1.5956 Y-1.1028
N1873 X1.5977 Y-1.0997
N1875 X1.599 Y-1.0963
N1877 X1.5994 Y-1.0926
N1879 X1.5989 Y-0.8022
N1881 X1.5977 Y-0.798
N1883 X1.5956 Y-0.7941
N1885 X1.5928 Y-0.7907
N1887 X1.5894 Y-0.7879
N1889 X1.5855 Y-0.7858
N1891 X1.5813 Y-0.7845
N1893 X1.5769 Y-0.7841
N1895 X0.8035 Y-0.7847
N1897 X0.7993 Y-0.786
N1899 X0.7954 Y-0.788
N1901 X0.792 Y-0.7908
N1903 X0.7892 Y-0.7942
N1905 X0.7871 Y-0.7981
N1907 X0.7858 Y-0.8024
N1909 X0.7854 Y-0.8067
N1911 X0.7857 Y-1.1065
N1913 X0.7869 Y-1.1096
N1915 X0.7889 Y-1.1124
N1917 X0.7915 Y-1.1146
N1919 X0.7946 Y-1.1161
N1921 X0.7979 Y-1.1167
N1923 X0.8013 Y-1.1165
N1925 X0.8052 Y-1.1152
N1927 X0.8162 Y-1.1106
N1929 X0.8527 Y-1.0983
N1931 X0.8685 Y-1.0948
N1933 X0.8757 Y-1.0935
N1935 X0.883 Y-1.0928
N1937 X0.9028
N1939 X0.9101 Y-1.0932
N1941 X0.9174 Y-1.0941
N1943 X0.9367 Y-1.0986
N1945 X0.9437 Y-1.1007
N1947 X0.9506 Y-1.1032
N1949 X0.9683 Y-1.112
N1951 X0.9781 Y-1.1171
N1953 X0.9809
N1955 X0.9835 Y-1.1163
N1957 X0.9857 Y-1.1147
N1959 X0.9873 Y-1.1125
N1961 X0.9881 Y-1.1099
N1963 X0.988 Y-1.1071
N1965 X0.9788 Y-1.0591
N1967 X0.9774 Y-1.0412
N1969 X0.978 Y-1.0279
N1971 X0.9803 Y-1.0101
N1973 X0.9836 Y-0.9972
N1975 X0.9895 Y-0.9803
N1977 X0.9955 Y-0.9684
N1979 X1.0052 Y-0.9524
N1981 X1.0136 Y-0.9419
N1983 X1.0264 Y-0.9283
N1985 X1.0367 Y-0.9198
N1987 X1.0506 Y-0.9101
N1989 X1.0594 Y-0.9051
N1991 X1.0731 Y-0.8989
N1993 X1.0877 Y-0.8925
N1995 X1.1004 Y-0.8858
N1997 X1.1313 Y-0.8669
N1999 X1.1515 Y-0.8575
N2001 X1.1594 Y-0.8549
N2003 X1.1674 Y-0.853
N2005 X1.1893 Y-0.8491
N2007 X1.1976 Y-0.8486
N2009 X1.2059 Y-0.8489
N2011 X1.228 Y-0.8507
N2013 X1.2361 Y-0.8524
N2015 X1.2441 Y-0.8547
N2017 X1.265 Y-0.8622
N2019 X1.2723 Y-0.8658
N2021 X1.2793 Y-0.87
N2023 X1.2952 Y-0.8807
N2025 X1.3056 Y-0.8884
N2027 X1.3106 Y-0.8911
N2029 X1.3348 Y-0.9
N2031 X1.3454 Y-0.9053
N2033 X1.365 Y-0.9173
N2035 X1.3716 Y-0.9224
N2037 X1.3777 Y-0.928
N2039 X1.3882 Y-0.9387
N2041 X1.391 Y-0.9424
N2043 X1.3932 Y-0.9465
N2045 X1.3947 Y-0.9509
N2047 X1.3954 Y-0.9555
N2049 X1.3953 Y-0.9601
N2051 X1.3944 Y-0.9647
N2053 X1.3929 Y-0.969
N2055 X1.3892 Y-0.975
N2057 X1.3608 Y-1.0172
N2059 X1.3579 Y-1.0231
N2061 X1.3557 Y-1.0294
N2063 X1.3542 Y-1.0358
N2065 X1.3505 Y-1.0557
N2067 X1.3163 Y-1.2183
N2069 X1.3152 Y-1.2325
N2071 X1.3156 Y-1.2369
N2073 X1.317 Y-1.2459
N2075 X1.319 Y-1.254
N2077 X1.3228 Y-1.2639
N2079 X1.3283 Y-1.2712
N2081 X1.3314 Y-1.2742
N2083 X1.3393 Y-1.2801
N2085 X1.3489 Y-1.2845
N2087 X1.3536 Y-1.286
N2089 X1.364 Y-1.2879
N2091 X1.3731 Y-1.2873
N2093 X1.3844 Y-1.2856
N2095 X1.3914 Y-1.283
N2097 X1.3984 Y-1.2785
N2099 X1.405 Y-1.2719
N2101 X1.4112 Y-1.2631
N2103 X1.4475 Y-1.202
N2105 X1.4581 Y-1.1888
N2107 X1.4714 Y-1.1784
N2109 X1.4868 Y-1.1712
N2111 X1.5033 Y-1.1677
N2113 X1.5202 Y-1.1679
N2115 X1.5347 Y-1.1712
N2117 X1.5698 Y-1.184
N2119 X1.5824 Y-1.1907
N2121 X1.5849 Y-1.1925
N2123 X1.597 Y-1.2036
N2125 X1.6065 Y-1.217
N2127 X1.6123 Y-1.2303
N2129 X1.6232 Y-1.2675
N2131 X1.6252 Y-1.2822
N2133 X1.6243 Y-1.297
N2135 X1.6204 Y-1.3114
N2137 X1.6132 Y-1.3258
N2139 X1.6032 Y-1.3385
N2141 X1.5917 Y-1.3482
N2143 X1.5822 Y-1.3538
N2145 X1.5013 Y-1.3936
N2147 X1.4939 Y-1.3984
N2149 X1.4869 Y-1.4038
N2151 X1.4804 Y-1.4097
N2153 X1.4721 Y-1.419
N2155 X1.4612 Y-1.4362
N2157 X1.4484 Y-1.4648
N2159 X1.4387 Y-1.4793
N2161 X1.4375 Y-1.4805
N2163 X1.4244 Y-1.4921
N2165 X1.423 Y-1.493
N2167 X1.4075 Y-1.501
N2169 X1.4058 Y-1.5015
N2171 X1.3887 Y-1.5055
N2173 X1.3869 Y-1.5056
N2175 X1.3684 Y-1.5051
N2177 X1.3652 Y-1.5045
N2179 X1.2707 Y-1.4859
N2181 X1.2612 Y-1.4853
N2183 X1.2517 Y-1.4856
N2185 X1.2402 Y-1.4872
N2187 X1.2258 Y-1.4915
N2189 X1.2112 Y-1.4946
N2191 X1.1966 Y-1.4949
N2193 X1.1839 Y-1.4929
N2195 X1.1587 Y-1.486
N2197 X1.149 Y-1.4853
N2199 X1.1377
N2201 X1.1271 Y-1.4861
N2203 X1.034 Y-1.5045
N2205 X1.0178 Y-1.5055
N2207 X1.0162 Y-1.5053
N2209 X1.0002 Y-1.5024
N2211 X0.9986 Y-1.5018
N2213 X0.9838 Y-1.4952
N2215 X0.9825 Y-1.4942
N2217 X0.9696 Y-1.4843
N2219 X0.9685 Y-1.4831
N2221 X0.9584 Y-1.4704
N2223 X0.9576 Y-1.469
N2225 X0.9513 Y-1.4559
N2227 X0.9472 Y-1.445
N2229 X0.9425 Y-1.4352
N2231 X0.9376 Y-1.4264
N2233 X0.9272 Y-1.4131
N2235 X0.9212 Y-1.407
N2237 X0.9146 Y-1.4015
N2239 X0.9076 Y-1.3965
N2241 X0.8991 Y-1.3916
N2243 X0.8831 Y-1.3833
N2245 X0.8525 Y-1.368
N2247 X0.8195 Y-1.3521
N2249 X0.8055 Y-1.3429
N2251 X0.7938 Y-1.3307
N2253 X0.7856 Y-1.3172
N2255 X0.782 Y-1.3079
N2257 X0.7795 Y-1.2983
N2259 X0.7783 Y-1.2882
N2261 X0.7784 Y-1.2774
N2263 X0.7802 Y-1.2667
N2265 X0.7826 Y-1.2583
N2267 X0.7936 Y-1.2287
N2269 X0.7988 Y-1.2178
N2271 X0.8068 Y-1.2055
N2273 X0.8171 Y-1.195
N2275 X0.8292 Y-1.1867
N2277 X0.8407 Y-1.1815
N2279 X0.8724 Y-1.1707
N2281 X0.8893 Y-1.1676
N2283 X0.9064 Y-1.1684
N2285 X0.923 Y-1.1731
N2287 X0.938 Y-1.1814
N2289 X0.9507 Y-1.1929
N2291 X0.9594 Y-1.2048
N2293 X0.9927 Y-1.2619
N2295 X0.9986 Y-1.2701
N2297 X1.0048 Y-1.2765
N2299 X1.0109 Y-1.2811
N2301 X1.0164 Y-1.2837
N2303 X1.0255 Y-1.2861
N2305 X1.0336 Y-1.2877
N2307 X1.044 Y-1.2872
N2309 X1.0488 Y-1.2864
N2311 X1.0587 Y-1.2832
N2313 X1.0677 Y-1.2778
N2315 X1.0716 Y-1.2748
N2317 X1.0788 Y-1.2673
N2319 X1.0842 Y-1.2582
N2321 X1.0862 Y-1.2533
N2323 X1.0891 Y-1.2416
N2325 X1.0892 Y-1.2366
N2327 X1.0873 Y-1.2209
N2329 X1.0855 Y-1.2112
N2331 X1.0535 Y-1.0521
N2333 X1.0525 Y-1.0366
N2335 X1.0547 Y-1.0211
N2337 X1.0601 Y-1.0065
N2339 X1.0688 Y-0.9926
N2341 X1.0802 Y-0.981
N2343 X1.0927 Y-0.9724
N2345 X1.1022 Y-0.968
N2347 X1.1186 Y-0.9615
N2349 X1.1287 Y-0.9566
N2351 X1.1384 Y-0.9511
N2353 X1.1639 Y-0.9344
N2355 X1.1798 Y-0.9271
N2357 X1.1816 Y-0.9267
N2359 X1.1989 Y-0.9236
N2361 X1.2007 Y-0.9237
N2363 X1.2182 Y-0.9252
N2365 X1.2199 Y-0.9257
N2367 X1.2364 Y-0.9316
N2369 X1.238 Y-0.9326
N2371 X1.2501 Y-0.9406
N2373 X1.2652 Y-0.9519
N2375 X1.2801 Y-0.9599
N2377 X1.3075 Y-0.97
N2379 X1.323 Y-0.9795
N2381 X1.3244 Y-0.9808
N2383 X1.337 Y-0.994
N2385 X1.3379 Y-0.9955
N2387 X1.3467 Y-1.0115
N2389 X1.3472 Y-1.0132
N2391 X1.3515 Y-1.0301
N2393 G3 X1.4429 Y-1.1529 Z-0.1456 I0.1939 J0.0489 F6.0
N2395 G1 X1.6146 Y-1.2554 Z-0.0187 F8.0
N2397 Z0.01 F15.0
N2399 X1.3345 Y-1.3214
N2401 Z-0.0187 F4.0
N2403 X1.1845 Y-1.4538 Z-0.1456 F8.0
N2405 G2 X1.0397 Y-1.5034 Z-0.19 I-0.1323 J0.15 F10.0
N2407 G1 X1.0053 Y-1.5013 F8.0
N2409 X0.9956 Y-1.5015
N2411 X0.9802 Y-1.5038
N2413 X0.9167 Y-1.5172
N2415 X0.9113 Y-1.5169
N2417 X0.9062 Y-1.5156
N2419 X0.9013 Y-1.5133
N2421 X0.8969 Y-1.5103
N2423 X0.8932 Y-1.5064
N2425 X0.8902 Y-1.5018
N2427 X0.878 Y-1.4751
N2429 X0.8748 Y-1.47
N2431 X0.8711 Y-1.4653
N2433 X0.8668 Y-1.461
N2435 X0.8621 Y-1.4573
N2437 X0.849 Y-1.4501
N2439 X0.8053 Y-1.4286
N2441 X0.802 Y-1.4275
N2443 X0.7984 Y-1.4272
N2445 X0.7949 Y-1.4279
N2447 X0.7917 Y-1.4294
N2449 X0.7889 Y-1.4316
N2451 X0.7869 Y-1.4345
N2453 X0.7855 Y-1.4378
N2455 X0.7851 Y-1.4413
N2457 X0.7855 Y-1.581
N2459 X0.7867 Y-1.5852
N2461 X0.7888 Y-1.5891
N2463 X0.7916 Y-1.5925
N2465 X0.795 Y-1.5953
N2467 X0.7989 Y-1.5974
N2469 X0.8031 Y-1.5986
N2471 X0.8075 Y-1.5991
N2473 X1.5815 Y-1.5983
N2475 X1.5857 Y-1.597
N2477 X1.5896 Y-1.595
N2479 X1.593 Y-1.5922
N2481 X1.5958 Y-1.5887
N2483 X1.5979 Y-1.5849
N2485 X1.5991 Y-1.5806
N2487 X1.5996 Y-1.5762
N2489 X1.5991 Y-1.4477
N2491 X1.5978 Y-1.4445
N2493 X1.5957 Y-1.4416
N2495 X1.5929 Y-1.4393
N2497 X1.5897 Y-1.4379
N2499 X1.5862 Y-1.4372
N2501 X1.5827 Y-1.4375
N2503 X1.5793 Y-1.4386
N2505 X1.5436 Y-1.4564
N2507 X1.5388 Y-1.46
N2509 X1.5344 Y-1.4641
N2511 X1.5304 Y-1.4686
N2513 X1.5271 Y-1.4737
N2515 X1.5244 Y-1.479
N2517 X1.5166 Y-1.4966
N2519 X1.5113 Y-1.5058
N2521 X1.499 Y-1.524
N2523 X1.4939 Y-1.53
N2525 X1.4883 Y-1.5357
N2527 X1.4719 Y-1.5503
N2529 X1.4655 Y-1.5549
N2531 X1.4586 Y-1.559
N2533 X1.4392 Y-1.5691
N2535 X1.4318 Y-1.572
N2537 X1.4241 Y-1.5743
N2539 X1.4024 Y-1.5794
N2541 X1.3942 Y-1.5803
N2543 X1.3859 Y-1.5806
N2545 X1.3656 Y-1.5802
N2547 X1.3605 Y-1.5797
N2549 X1.3503 Y-1.578
N2551 X1.274 Y-1.563
N2553 X1.2655 Y-1.5624
N2555 X1.257 Y-1.5626
N2557 X1.2485 Y-1.5635
N2559 X1.2208 Y-1.5691
N2561 X1.204 Y-1.57
N2563 X1.1916 Y-1.5698
N2565 X1.1855 Y-1.5691
N2567 X1.1678 Y-1.5661
N2569 X1.1504 Y-1.5624
N2571 X1.1415 Y-1.5617
N2573 X1.1326 Y-1.562
N2575 X1.1238 Y-1.5632
N2577 X1.0435 Y-1.5789
N2579 X1.0267 Y-1.5803
N2581 X1.0191 Y-1.5805
N2583 X1.0115 Y-1.5802
N2585 X1.0039 Y-1.5793
N2587 X0.9837 Y-1.5756
N2589 X0.9764 Y-1.5735
N2591 X0.9692 Y-1.5708
N2593 X0.9505 Y-1.5624
N2595 X0.9438 Y-1.5586
N2597 X0.9376 Y-1.5543
N2599 X0.9213 Y-1.5418
N2601 X0.9158 Y-1.5365
N2603 X0.9107 Y-1.5308
N2605 X0.9024 Y-1.5208
N2607 G2 X0.8576 Y-1.3745 Z-0.1456 I0.1543 J0.1273 F10.0
N2609 G1 X0.8766 Y-1.1754 Z-0.0187 F8.0
N2611 Z0.01 F15.0
N2613 X1.2856 Y-0.9054
N2615 Z-0.0187 F4.0
N2617 X1.4277 Y-1.0461 Z-0.1456 F8.0
N2619 G3 X1.5695 Y-1.1039 Z-0.19 I0.1407 J0.1422 F6.0
N2621 G1 X1.6563 Y-1.1035 F8.0
N2623 X1.6606 Y-1.1022
N2625 X1.6644 Y-1.1001
N2627 X1.6679 Y-1.0973
N2629 X1.6707 Y-1.0939
N2631 X1.6727 Y-1.09
N2633 X1.674 Y-1.0858
N2635 X1.6744 Y-1.0814
N2637 X1.6739 Y-0.7272
N2639 X1.6726 Y-0.7229
N2641 X1.6706 Y-0.7191
N2643 X1.6678 Y-0.7156
N2645 X1.6644 Y-0.7129
N2647 X1.6605 Y-0.7108
N2649 X1.6562 Y-0.7095
N2651 X1.6519 Y-0.7091
N2653 X0.7285 Y-0.7097
N2655 X0.7243 Y-0.711
N2657 X0.7204 Y-0.7131
N2659 X0.717 Y-0.7159
N2661 X0.7142 Y-0.7193
N2663 X0.7121 Y-0.7232
N2665 X0.7108 Y-0.7274
N2667 X0.7104 Y-0.7318
N2669 Y-1.656
N2671 X0.7117 Y-1.6602
N2673 X0.7138 Y-1.6641
N2675 X0.7166 Y-1.6675
N2677 X0.72 Y-1.6703
N2679 X0.7239 Y-1.6724
N2681 X0.7281 Y-1.6737
N2683 X0.7325 Y-1.6741
N2685 X1.6565 Y-1.6733
N2687 X1.6607 Y-1.672
N2689 X1.6646 Y-1.6699
N2691 X1.668 Y-1.6671
N2693 X1.6708 Y-1.6637
N2695 X1.6729 Y-1.6598
N2697 X1.6742 Y-1.6556
N2699 X1.6746 Y-1.6512
N2701 X1.6745 Y-1.1039
N2703 G3 X1.6158 Y-0.9625 Z-0.1456 I-0.2 J0.0 F6.0
N2705 G1 X1.4744 Y-0.8211 Z-0.0187 F8.0
N2707 Z0.1279 F15.0
N2709 X0.7213 Y-1.4959
N2711 Z0.01
N2713 Z-0.0187 F4.0
N2715 X0.8627 Y-1.6373 Z-0.1456 F8.0
N2717 G3 X1.0041 Y-1.6959 Z-0.19 I0.1414 J0.1414 F6.0
N2719 G1 X1.6957 Y-1.696 F8.0
N2721 X1.6964 Y-1.6955
N2723 X1.697 Y-0.6917
N2725 X1.6961 Y-0.6873
N2727 X0.6917 Y-0.687
N2729 X0.6887 Y-0.6875
N2731 X0.688 Y-1.6734
N2733 X0.6882 Y-1.695
N2735 X0.6891 Y-1.6959
N2737 X1.0041
N2739 G3 X1.1455 Y-1.6373 Z-0.1456 I0.0 J0.2 F6.0
N2741 G1 X1.2869 Y-1.4959 Z-0.0187 F8.0
N2743 G0 Z0.5
N2745 G91 G28 Z0
N2747 M05
N2749 T02 M06 (1/4 BALLNOSE 2FLT HSS1" F L3" TL)
N2751 G0 G90 G56 X0.9861 Y-1.1915 M3 S3500
N2753 G43 H02 Z0.25 
N2755 Z0.0
N2757 G1 Z-0.055 F4.0
N2759 X-0.3075 F8.0
N2761 Z-0.11 F4.0
N2763 X0.9861 F8.0
N2765 Z-0.16 F4.0
N2767 X-0.3075 F8.0
N2769 G0 Z0.25
N2771 X1.1925 Y-2.6915
N2773 Z0.0
N2775 G1 Z-0.055 F4.0
N2777 Y-1.3979 F8.0
N2779 Z-0.11 F4.0
N2781 Y-2.6915 F8.0
N2783 Z-0.16 F4.0
N2785 Y-1.3979 F8.0
N2787 G0 Z0.25
N2789 X2.6925 Y-1.1915
N2791 Z0.0
N2793 G1 Z-0.055 F4.0
N2795 X1.3989 F8.0
N2797 Z-0.11 F4.0
N2799 X2.6925 F8.0
N2801 Z-0.16 F4.0
N2803 X1.3989 F8.0
N2805 G0 Z0.25
N2807 X1.1925 Y-0.9851
N2809 Z0.0
N2811 G1 Z-0.055 F4.0
N2813 Y0.3085 F8.0
N2815 Z-0.11 F4.0
N2817 Y-0.9851 F8.0
N2819 Z-0.16 F4.0
N2821 Y0.3085 F8.0
N2823 G0 Z0.25
N2825 G1 X1.3138 Y-1.8165
N2827 Z-0.1 F4.0
N2829 X1.6925 F8.0
N2831 G3 X1.8175 Y-1.6915 R0.125 F6.0
N2833 G1 Y-1.3128 F8.0
N2835 Y-1.0702
N2837 Y-0.6915
N2839 G3 X1.6925 Y-0.5665 R0.125 F6.0
N2841 G1 X1.3138 F8.0
N2843 X1.0712
N2845 X0.6925
N2847 G3 X0.5675 Y-0.6915 R0.125 F6.0
N2849 G1 Y-1.0702 F8.0
N2851 Y-1.3128
N2853 Y-1.6915
N2855 G3 X0.6925 Y-1.8165 R0.125 F6.0
N2857 G1 X1.0712 F8.0
N2859 X1.3138
N2861 G0 Z0.5
N2863 G1 Z-0.19 F4.0
N2865 X1.6925 F8.0
N2867 G3 X1.8175 Y-1.6915 R0.125 F6.0
N2869 G1 Y-1.3128 F8.0
N2871 Y-1.0702
N2873 Y-0.6915
N2875 G3 X1.6925 Y-0.5665 R0.125 F6.0
N2877 G1 X1.3138 F8.0
N2879 X1.0712
N2881 X0.6925
N2883 G3 X0.5675 Y-0.6915 R0.125 F6.0
N2885 G1 Y-1.0702 F8.0
N2887 Y-1.3128
N2889 Y-1.6915
N2891 G3 X0.6925 Y-1.8165 R0.125 F6.0
N2893 G1 X1.0712 F8.0
N2895 X1.3138
N2897 G0 Z0.5
N2899 G91 G28 Z0
N2901 M05
N2903 T03 M06 (1/8 SPOT DRILL SHORT X118  0.6 FL 1.25 TL)
N2905 G90 G0 X2.0675 Y-0.8665 M03 S4000 
N2907 G43 Z0.5 H03 
N2909 G99 G83 X2.0675 Y-0.8665 Z-0.2076 R0.5 Q0.056 F2.0
N2911 Y-1.5165
N2913 X0.3175
N2915 Y-0.8665
N2917 G80 
N2919 G91 G28 Z0
N2921 M05
N2923 T04 M06 (1/16 ENDMILL  4FLT HSS)
N2925 G0 G90 G56 X1.5183 Y-1.2674 M3 S4500
N2927 G43 H04 Z0.5 
N2929 Z-0.006
N2931 G1 Z-0.206 F4.0
N2933 X1.5096 Y-1.2625 F8.0
N2935 X1.4874 Y-1.3034
N2937 X1.4878 Y-1.3044
N2939 X1.4888 Y-1.3049
N2941 X1.4898 Y-1.3047
N2943 X1.5359 Y-1.2817
N2945 X1.5372 Y-1.2798
N2947 X1.5378 Y-1.2776
N2949 X1.5376 Y-1.2752
N2951 X1.5342 Y-1.2637
N2953 X1.5327 Y-1.2617
N2955 X1.5307 Y-1.26
N2957 X1.5284 Y-1.2589
N2959 X1.5195 Y-1.256
N2961 X1.5149 Y-1.2559
N2963 X1.5119 Y-1.2584
N2965 X1.5096 Y-1.2625
N2967 G2 X1.39 Y-1.358 Z-0.1616 I-0.1751 J0.0966 F9.48
N2969 G1 X1.1978 Y-1.4135 Z-0.0347 F8.0
N2971 Z-0.006 F15.0
N2973 X1.213 Y-1.0754
N2975 Z-0.206 F4.0
N2977 X1.2176 Y-1.0665 F8.0
N2979 X1.2046 Y-1.0592
N2981 X1.2022 Y-1.0589
N2983 X1.1997 Y-1.0592
N2985 X1.1974 Y-1.0602
N2987 X1.1846 Y-1.068
N2989 X1.1833 Y-1.07
N2991 X1.1826 Y-1.0723
N2993 X1.1827 Y-1.0747
N2995 X1.2014 Y-1.1624
N2997 X1.2029
N2999 X1.2033 Y-1.1617
N3001 X1.2218 Y-1.0723
N3003 X1.2211 Y-1.07
N3005 X1.2197 Y-1.068
N3007 X1.2176 Y-1.0665
N3009 X1.213 Y-1.0754
N3011 Z-0.006 F15.0
N3013 X1.1987 Y-1.3391
N3015 Z-0.206 F4.0
N3017 X1.196 Y-1.3487 F8.0
N3019 X1.1991 Y-1.3496
N3021 X1.2022 Y-1.3499
N3023 X1.2053 Y-1.3496
N3025 X1.2063 Y-1.3475
N3027 X1.2052 Y-1.3442
N3029 X1.2022 Y-1.3425
N3031 X1.1991 Y-1.3442
N3033 X1.1955 Y-1.3475
N3035 X1.1905 Y-1.3476
N3037 X1.1784 Y-1.3456
N3039 X1.176 Y-1.3461
N3041 X1.1737 Y-1.3472
N3043 X1.1718 Y-1.349
N3045 X1.1636 Y-1.359
N3047 X1.1637 Y-1.3605
N3049 X1.1646 Y-1.3618
N3051 X1.166 Y-1.3624
N3053 X1.1859 Y-1.3656
N3055 X1.2004 Y-1.3692
N3057 X1.204
N3059 X1.2192 Y-1.3655
N3061 X1.2398 Y-1.3618
N3063 X1.2407 Y-1.3606
N3065 X1.2408 Y-1.3591
N3067 X1.2401 Y-1.3577
N3069 X1.2353 Y-1.3522
N3071 X1.2291 Y-1.3448
N3073 X1.2219 Y-1.3354
N3075 X1.2156 Y-1.3254
N3077 X1.2101 Y-1.3148
N3079 X1.2035 Y-1.3012
N3081 X1.2022 Y-1.3008
N3083 X1.2009 Y-1.3012
N3085 X1.2001 Y-1.3022
N3087 X1.1979 Y-1.3072
N3089 X1.1937 Y-1.3159
N3091 X1.1882 Y-1.3264
N3093 X1.1788 Y-1.3402
N3095 X1.177 Y-1.3419
N3097 X1.1748 Y-1.3431
N3099 X1.1724 Y-1.3437
N3101 X1.1699 Y-1.3435
N3103 X1.1575 Y-1.3413
N3105 X1.155 Y-1.3418
N3107 X1.1527 Y-1.3429
N3109 X1.1507 Y-1.3445
N3111 X1.147 Y-1.3486
N3113 X1.1394 Y-1.3555
N3115 X1.1234 Y-1.3673
N3117 X1.1147 Y-1.3728
N3119 X1.1056 Y-1.3776
N3121 X1.0872 Y-1.3848
N3123 X1.0774 Y-1.388
N3125 X1.0674 Y-1.3902
N3127 X1.0572 Y-1.3916
N3129 X1.0437 Y-1.3928
N3131 X1.0404 Y-1.3939
N3133 X1.0392 Y-1.3957
N3135 X1.0416 Y-1.3972
N3137 X1.0458
N3139 X1.1223 Y-1.3817
N3141 X1.137 Y-1.3803
N3143 X1.1463 Y-1.3799
N3145 X1.1556 Y-1.3802
N3147 X1.1747 Y-1.3826
N3149 X1.1839 Y-1.3844
N3151 X1.2005 Y-1.3891
N3153 X1.2038 Y-1.3892
N3155 X1.2071 Y-1.3884
N3157 X1.2123 Y-1.3866
N3159 X1.2213 Y-1.3842
N3161 X1.2403 Y-1.3811
N3163 X1.2495 Y-1.3801
N3165 X1.2588 Y-1.3799
N3167 X1.2681 Y-1.3803
N3169 X1.287 Y-1.3824
N3171 X1.2916 Y-1.3833
N3173 X1.3585 Y-1.3974
N3175 X1.3627
N3177 X1.3651 Y-1.3958
N3179 X1.3639 Y-1.3939
N3181 X1.3592 Y-1.3928
N3183 X1.3461 Y-1.3915
N3185 X1.336 Y-1.39
N3187 X1.326 Y-1.3877
N3189 X1.3072 Y-1.3811
N3191 X1.2977 Y-1.3771
N3193 X1.2887 Y-1.3723
N3195 X1.2722 Y-1.3611
N3197 X1.2641 Y-1.3548
N3199 X1.2566 Y-1.3478
N3201 X1.2435 Y-1.3329
N3203 X1.2373 Y-1.3247
N3205 X1.2318 Y-1.316
N3207 X1.223 Y-1.2982
N3209 X1.2191 Y-1.2887
N3211 X1.216 Y-1.2789
N3213 X1.2121 Y-1.2594
N3215 X1.2107 Y-1.2493
N3217 X1.2102 Y-1.2392
N3219 X1.2113 Y-1.2196
N3221 X1.2126 Y-1.2095
N3223 X1.2135 Y-1.2044
N3225 X1.2433 Y-1.061
N3227 X1.2426 Y-1.0588
N3229 X1.2411 Y-1.057
N3231 X1.2384 Y-1.0555
N3233 X1.2313 Y-1.0524
N3235 X1.2243 Y-1.0489
N3237 X1.2047 Y-1.0369
N3239 X1.2022 Y-1.0366
N3241 X1.1998 Y-1.0369
N3243 X1.1975 Y-1.038
N3245 X1.1796 Y-1.0491
N3247 X1.1726 Y-1.0526
N3249 X1.1633 Y-1.057
N3251 X1.1618 Y-1.0588
N3253 X1.1611 Y-1.061
N3255 X1.1612 Y-1.0633
N3257 X1.1926 Y-1.215
N3259 X1.1938 Y-1.2298
N3261 X1.1941 Y-1.2401
N3263 X1.1936 Y-1.2503
N3265 X1.1904 Y-1.2699
N3267 X1.1881 Y-1.2799
N3269 X1.1849 Y-1.2897
N3271 X1.1768 Y-1.3079
N3273 X1.172 Y-1.3169
N3275 X1.1664 Y-1.3256
N3277 X1.1582 Y-1.3361
N3279 X1.1563 Y-1.3377
N3281 X1.154 Y-1.3388
N3283 X1.1516 Y-1.3393
N3285 X1.1491 Y-1.339
N3287 X1.1368 Y-1.3363
N3289 X1.1342 Y-1.3366
N3291 X1.1318 Y-1.3375
N3293 X1.1274 Y-1.3412
N3295 X1.1126 Y-1.3519
N3297 X1.1054 Y-1.3566
N3299 X1.0977 Y-1.3606
N3301 X1.0807 Y-1.3672
N3303 X1.0724 Y-1.3699
N3305 X1.064 Y-1.3718
N3307 X1.0459 Y-1.3739
N3309 X1.0372 Y-1.3743
N3311 X1.0286 Y-1.374
N3313 X1.02 Y-1.373
N3315 X1.0061 Y-1.3709
N3317 X1.0051 Y-1.3717
N3319 X1.0047 Y-1.373
N3321 X1.0051 Y-1.3742
N3323 X1.0168 Y-1.3924
N3325 X1.0229 Y-1.4051
N3327 X1.0279 Y-1.4169
N3329 X1.0297 Y-1.4183
N3331 X1.0319 Y-1.4191
N3333 X1.0342 Y-1.419
N3335 X1.1247 Y-1.4003
N3337 X1.1386 Y-1.399
N3339 X1.1464 Y-1.3986
N3341 X1.1543 Y-1.3989
N3343 X1.172 Y-1.4012
N3345 X1.1797 Y-1.4027
N3347 X1.1873 Y-1.4047
N3349 X1.2004 Y-1.4092
N3351 X1.2039
N3353 X1.2104 Y-1.4071
N3355 X1.2178 Y-1.4045
N3357 X1.2254 Y-1.4025
N3359 X1.243 Y-1.3996
N3361 X1.2508 Y-1.3988
N3363 X1.2586 Y-1.3986
N3365 X1.2664 Y-1.399
N3367 X1.2839 Y-1.4009
N3369 X1.2877 Y-1.4016
N3371 X1.3724 Y-1.4191
N3373 X1.3746 Y-1.4183
N3375 X1.3765 Y-1.4169
N3377 X1.3777 Y-1.4149
N3379 X1.3845 Y-1.3982
N3381 X1.3915 Y-1.3859
N3383 X1.3997 Y-1.373
N3385 X1.3993 Y-1.3718
N3387 X1.3983 Y-1.3709
N3389 X1.3961 Y-1.371
N3391 X1.3835 Y-1.3731
N3393 X1.3749 Y-1.3741
N3395 X1.3662 Y-1.3743
N3397 X1.348 Y-1.3728
N3399 X1.3394 Y-1.3716
N3401 X1.331 Y-1.3696
N3403 X1.3138 Y-1.3636
N3405 X1.3058 Y-1.3602
N3407 X1.2982 Y-1.3561
N3409 X1.2831 Y-1.3458
N3411 X1.2763 Y-1.3405
N3413 X1.2699 Y-1.3346
N3415 X1.2579 Y-1.3209
N3417 X1.2527 Y-1.314
N3419 X1.2481 Y-1.3067
N3421 X1.24 Y-1.2903
N3423 X1.2367 Y-1.2823
N3425 X1.2341 Y-1.274
N3427 X1.2305 Y-1.2561
N3429 X1.2294 Y-1.2476
N3431 X1.229 Y-1.2391
N3433 X1.2293 Y-1.2305
N3435 X1.2311 Y-1.2125
N3437 X1.2319 Y-1.2083
N3439 X1.2649 Y-1.0492
N3441 X1.2642 Y-1.0471
N3443 X1.2628 Y-1.0453
N3445 X1.2603 Y-1.0439
N3447 X1.2393 Y-1.0354
N3449 X1.2278 Y-1.0291
N3451 X1.2045 Y-1.0138
N3453 X1.2022 Y-1.0134
N3455 X1.1999 Y-1.0138
N3457 X1.1978 Y-1.0149
N3459 X1.1898 Y-1.0206
N3461 X1.1706 Y-1.0327
N3463 X1.1587 Y-1.0382
N3465 X1.1416 Y-1.0452
N3467 X1.1402 Y-1.047
N3469 X1.1394 Y-1.0492
N3471 X1.1395 Y-1.0515
N3473 X1.174 Y-1.2172
N3475 X1.1751 Y-1.2312
N3477 X1.1754 Y-1.2398
N3479 X1.1749 Y-1.2485
N3481 X1.1719 Y-1.2665
N3483 X1.17 Y-1.2749
N3485 X1.1673 Y-1.2832
N3487 X1.1599 Y-1.2998
N3489 X1.1558 Y-1.3075
N3491 X1.1511 Y-1.3148
N3493 X1.1396 Y-1.3289
N3495 X1.1339 Y-1.3352
N3497 X1.1409 Y-1.3424
N3499 Z0.0023 F15.0
N3501 X1.2363 Y-1.4476
N3503 Z-0.006
N3505 Z-0.0347 F4.0
N3507 X1.0424 Y-1.3986 Z-0.1616 F8.0
N3509 G2 X0.9196 Y-1.3072 Z-0.206 I0.0489 J0.1939 F9.48
N3511 G1 X0.9172 Y-1.3032 F8.0
N3513 X0.8915 Y-1.2575
N3515 X0.8896 Y-1.2562
N3517 X0.8873 Y-1.2558
N3519 X0.8849 Y-1.2561
N3521 X0.8737 Y-1.26
N3523 X0.8717 Y-1.2616
N3525 X0.8701 Y-1.2637
N3527 X0.8692 Y-1.2661
N3529 X0.8665 Y-1.2775
N3531 X0.8671 Y-1.2797
N3533 X0.8684 Y-1.2817
N3535 X0.8703 Y-1.2831
N3537 X0.9166 Y-1.3061
N3539 X0.9183 Y-1.308
N3541 X0.9193 Y-1.3103
N3543 X0.9197 Y-1.3128
N3545 X0.9201 Y-1.325
N3547 X0.9211 Y-1.3273
N3549 X0.9227 Y-1.3293
N3551 X0.9248 Y-1.3307
N3553 X0.9362 Y-1.3368
N3555 X0.9557 Y-1.3493
N3557 X0.9644 Y-1.3567
N3559 X0.9808 Y-1.3731
N3561 X0.9878 Y-1.3822
N3563 X1.0004 Y-1.4016
N3565 X1.0054 Y-1.412
N3567 X1.0145 Y-1.4366
N3569 X1.0155 Y-1.4388
N3571 X1.0171 Y-1.4402
N3573 X1.0191 Y-1.4409
N3575 X1.0213
N3577 X1.1271 Y-1.4189
N3579 X1.1402 Y-1.4177
N3581 X1.1466 Y-1.4174
N3583 X1.153 Y-1.4176
N3585 X1.1692 Y-1.4197
N3587 X1.1755 Y-1.4209
N3589 X1.1817 Y-1.4226
N3591 X1.2004 Y-1.4295
N3593 X1.2038
N3595 X1.2081 Y-1.4282
N3597 X1.2234 Y-1.4224
N3599 X1.2295 Y-1.4208
N3601 X1.2457 Y-1.4182
N3603 X1.2583 Y-1.4174
N3605 X1.2647 Y-1.4177
N3607 X1.2839 Y-1.42
N3609 X1.3852 Y-1.4409
N3611 X1.3872 Y-1.4402
N3613 X1.3888 Y-1.4388
N3615 X1.3899 Y-1.4366
N3617 X1.3928 Y-1.4278
N3619 X1.4015 Y-1.4063
N3621 X1.4071 Y-1.3963
N3623 X1.4201 Y-1.3772
N3625 X1.4278 Y-1.3686
N3627 X1.4445 Y-1.3526
N3629 X1.4537 Y-1.3458
N3631 X1.4759 Y-1.3325
N3633 X1.5599 Y-1.2908
N3635 X1.561 Y-1.2889
N3637 X1.5613 Y-1.2868
N3639 X1.556 Y-1.2716
N3641 X1.5499 Y-1.2487
N3643 X1.5484 Y-1.2467
N3645 X1.5465 Y-1.2452
N3647 X1.5179 Y-1.2357
N3649 X1.509 Y-1.2319
N3651 X1.5068 Y-1.2321
N3653 X1.5049 Y-1.2331
N3655 X1.5035 Y-1.2348
N3657 X1.4669 Y-1.3004
N3659 X1.4591 Y-1.3111
N3661 X1.4547 Y-1.3165
N3663 X1.4498 Y-1.3216
N3665 X1.437 Y-1.3323
N3667 X1.4313 Y-1.3364
N3669 X1.4253 Y-1.3401
N3671 X1.4102 Y-1.3471
N3673 X1.4036 Y-1.3496
N3675 X1.3969 Y-1.3516
N3677 X1.3805 Y-1.3546
N3679 X1.3735 Y-1.3554
N3681 X1.3665 Y-1.3556
N3683 X1.3499 Y-1.3542
N3685 X1.3429 Y-1.3532
N3687 X1.3361 Y-1.3516
N3689 X1.3204 Y-1.346
N3691 X1.3139 Y-1.3433
N3693 X1.3077 Y-1.34
N3695 X1.294 Y-1.3306
N3697 X1.2884 Y-1.3262
N3699 X1.2832 Y-1.3215
N3701 X1.2724 Y-1.3089
N3703 X1.2681 Y-1.3033
N3705 X1.2643 Y-1.2973
N3707 X1.257 Y-1.2824
N3709 X1.2543 Y-1.2759
N3711 X1.2522 Y-1.2691
N3713 X1.249 Y-1.2528
N3715 X1.248 Y-1.2459
N3717 X1.2477 Y-1.239
N3719 X1.248 Y-1.232
N3721 X1.2496 Y-1.2156
N3723 X1.2502 Y-1.2122
N3725 X1.287 Y-1.0352
N3727 X1.2862 Y-1.0332
N3729 X1.2846 Y-1.0317
N3731 X1.2826 Y-1.0308
N3733 X1.2722 Y-1.0283
N3735 X1.2672 Y-1.0265
N3737 X1.2472 Y-1.0185
N3739 X1.2379 Y-1.0133
N3741 X1.2199 Y-1.0016
N3743 X1.2118 Y-0.9947
N3745 X1.2044 Y-0.9881
N3747 X1.2022 Y-0.9877
N3749 X1.2 Y-0.9881
N3751 X1.1981 Y-0.9893
N3753 X1.1883 Y-0.9985
N3755 X1.1797 Y-1.0048
N3757 X1.1615 Y-1.0162
N3759 X1.1519 Y-1.0207
N3761 X1.1318 Y-1.0284
N3763 X1.1196 Y-1.0317
N3765 X1.1181 Y-1.0333
N3767 X1.1173 Y-1.0352
N3769 X1.1174 Y-1.0374
N3771 X1.1554 Y-1.2194
N3773 X1.1564 Y-1.2326
N3775 X1.1566 Y-1.2396
N3777 X1.1563 Y-1.2467
N3779 X1.1535 Y-1.2631
N3781 X1.1519 Y-1.2699
N3783 X1.1498 Y-1.2766
N3785 X1.1429 Y-1.2918
N3787 X1.1396 Y-1.298
N3789 X1.1358 Y-1.3039
N3791 X1.1253 Y-1.3168
N3793 X1.1205 Y-1.322
N3795 X1.1153 Y-1.3268
N3797 X1.1019 Y-1.3366
N3799 X1.096 Y-1.3404
N3801 X1.0897 Y-1.3436
N3803 X1.0742 Y-1.3496
N3805 X1.0675 Y-1.3518
N3807 X1.0606 Y-1.3533
N3809 X1.0441 Y-1.3552
N3811 X1.0371 Y-1.3556
N3813 X1.03 Y-1.3553
N3815 X1.0136 Y-1.3529
N3817 X1.0067 Y-1.3514
N3819 X0.9999 Y-1.3494
N3821 X0.9847 Y-1.3428
N3823 X0.9784 Y-1.3397
N3825 X0.9724 Y-1.336
N3827 X0.9593 Y-1.3257
N3829 X0.9541 Y-1.3211
N3831 X0.9492 Y-1.316
N3833 X0.9449 Y-1.3106
N3835 X0.9354 Y-1.2971
N3837 X0.9336 Y-1.2941
N3839 X0.8995 Y-1.2331
N3841 X0.8976 Y-1.2321
N3843 X0.8954 Y-1.2319
N3845 X0.8805 Y-1.2378
N3847 X0.8579 Y-1.2451
N3849 X0.856 Y-1.2467
N3851 X0.8545 Y-1.2487
N3853 X0.8464 Y-1.2777
N3855 X0.8431 Y-1.2868
N3857 X0.8434 Y-1.2889
N3859 X0.8445 Y-1.2908
N3861 X0.8463 Y-1.2922
N3863 X0.9168 Y-1.3271
N3865 X0.9184 Y-1.329
N3867 X0.9194 Y-1.3313
N3869 X0.9198 Y-1.3338
N3871 X0.9202 Y-1.346
N3873 X0.9212 Y-1.3482
N3875 X0.9227 Y-1.3502
N3877 X0.9262 Y-1.3526
N3879 X0.9446 Y-1.3644
N3881 X0.9513 Y-1.3701
N3883 X0.9668 Y-1.3855
N3885 X0.9722 Y-1.3925
N3887 X0.9841 Y-1.4108
N3889 X0.9879 Y-1.4188
N3891 X0.9957 Y-1.4392
N3893 X0.9978 Y-1.4478
N3895 X1.0003 Y-1.4609
N3897 X1.0018 Y-1.4624
N3899 X1.0038 Y-1.4633
N3901 X1.006
N3903 X1.132 Y-1.4372
N3905 X1.1468 Y-1.4361
N3907 X1.1566 Y-1.4368
N3909 X1.1713 Y-1.4392
N3911 X1.1807 Y-1.4422
N3913 X1.1941 Y-1.4478
N3915 X1.1997 Y-1.4505
N3917 X1.2022 Y-1.4508
N3919 X1.2046 Y-1.4505
N3921 X1.207 Y-1.4495
N3923 X1.215 Y-1.4456
N3925 X1.2289 Y-1.4403
N3927 X1.2385 Y-1.4382
N3929 X1.2532 Y-1.4362
N3931 X1.263 Y-1.4364
N3933 X1.28 Y-1.4383
N3935 X1.4005 Y-1.4633
N3937 X1.4025 Y-1.4624
N3939 X1.404 Y-1.4609
N3941 X1.4048 Y-1.4589
N3943 X1.4076 Y-1.4431
N3945 X1.4102 Y-1.4346
N3947 X1.4184 Y-1.4144
N3949 X1.4227 Y-1.4067
N3951 X1.435 Y-1.3886
N3953 X1.4409 Y-1.382
N3955 X1.4566 Y-1.3669
N3957 X1.4637 Y-1.3617
N3959 X1.4841 Y-1.3493
N3961 X1.5853 Y-1.2992
N3963 X1.5864 Y-1.2974
N3965 X1.5866 Y-1.2952
N3967 X1.586 Y-1.2931
N3969 X1.5771 Y-1.2755
N3971 X1.5742 Y-1.2669
N3973 X1.5686 Y-1.2451
N3975 X1.5676 Y-1.236
N3977 X1.567 Y-1.2321
N3979 X1.5657 Y-1.2302
N3981 X1.5639 Y-1.2288
N3983 X1.5596 Y-1.228
N3985 X1.5506 Y-1.2265
N3987 X1.5462 Y-1.2253
N3989 X1.5249 Y-1.2183
N3991 X1.5166 Y-1.2143
N3993 X1.5018 Y-1.2061
N3995 X1.4997 Y-1.2063
N3997 X1.4977 Y-1.2072
N3999 X1.4963 Y-1.2089
N4001 X1.4497 Y-1.2922
N4003 X1.4406 Y-1.3041
N4005 X1.4328 Y-1.3116
N4007 X1.4209 Y-1.3208
N4009 X1.4114 Y-1.326
N4011 X1.3976 Y-1.3319
N4013 X1.387 Y-1.3345
N4015 X1.3722 Y-1.3367
N4017 X1.3613 Y-1.3365
N4019 X1.3464 Y-1.3348
N4021 X1.336 Y-1.3318
N4023 X1.322 Y-1.3263
N4025 X1.3126 Y-1.3208
N4027 X1.3005 Y-1.3119
N4029 X1.2929 Y-1.3042
N4031 X1.2835 Y-1.2925
N4033 X1.2781 Y-1.2832
N4035 X1.2719 Y-1.2694
N4037 X1.2691 Y-1.259
N4039 X1.2667 Y-1.2442
N4041 Y-1.2335
N4043 X1.2686 Y-1.216
N4045 X1.3094 Y-1.0196
N4047 X1.3086 Y-1.0178
N4049 X1.3071 Y-1.0164
N4051 X1.3047 Y-1.0157
N4053 X1.2859 Y-1.0124
N4055 X1.2779 Y-1.0104
N4057 X1.274 Y-1.009
N4059 X1.2552 Y-1.0015
N4061 X1.248 Y-0.9975
N4063 X1.2311 Y-0.9865
N4065 X1.2248 Y-0.9812
N4067 X1.2103 Y-0.967
N4069 X1.204 Y-0.9597
N4071 X1.2022 Y-0.9593
N4073 X1.2004 Y-0.9597
N4075 X1.199 Y-0.9609
N4077 X1.1938 Y-0.9673
N4079 X1.191 Y-0.9702
N4081 X1.1763 Y-0.9841
N4083 X1.1696 Y-0.989
N4085 X1.1525 Y-0.9998
N4087 X1.145 Y-1.0033
N4089 X1.1261 Y-1.0105
N4091 X1.1181 Y-1.0125
N4093 X1.0973 Y-1.0164
N4095 X1.0958 Y-1.0178
N4097 X1.0949 Y-1.0196
N4099 Y-1.0217
N4101 X1.137 Y-1.2244
N4103 X1.1379 Y-1.2394
N4105 X1.1368 Y-1.2502
N4107 X1.1339 Y-1.2649
N4109 X1.1301 Y-1.2751
N4111 X1.1234 Y-1.2886
N4113 X1.1172 Y-1.2974
N4115 X1.1073 Y-1.3087
N4117 X1.099 Y-1.3157
N4119 X1.0866 Y-1.3241
N4121 X1.0768 Y-1.3287
N4123 X1.0626 Y-1.3337
N4125 X1.0519 Y-1.3356
N4127 X1.0369 Y-1.3368
N4129 X1.0261 Y-1.336
N4131 X1.0113 Y-1.3333
N4133 X1.0011 Y-1.3297
N4135 X0.9875 Y-1.3233
N4137 X0.9785 Y-1.3172
N4139 X0.9671 Y-1.3076
N4141 X0.96 Y-1.2995
N4143 X0.9501 Y-1.2851
N4145 X0.9066 Y-1.2073
N4147 X0.9047 Y-1.2063
N4149 X0.9026 Y-1.2061
N4151 X0.9005 Y-1.2069
N4153 X0.8833 Y-1.2166
N4155 X0.8749 Y-1.22
N4157 X0.8534 Y-1.2266
N4159 X0.8443 Y-1.2281
N4161 X0.8405 Y-1.2288
N4163 X0.8386 Y-1.2302
N4165 X0.8373 Y-1.2321
N4167 X0.8368 Y-1.2364
N4169 X0.8357 Y-1.2455
N4171 X0.8347 Y-1.2499
N4173 X0.8287 Y-1.2716
N4175 X0.8251 Y-1.28
N4177 X0.8177 Y-1.2952
N4179 X0.8179 Y-1.2973
N4181 X0.819 Y-1.2992
N4183 X0.8207 Y-1.3005
N4185 X0.9169 Y-1.3481
N4187 X0.9185 Y-1.35
N4189 X0.9195 Y-1.3523
N4191 X0.9199 Y-1.3548
N4193 X0.9201 Y-1.3676
N4195 X0.921 Y-1.37
N4197 X0.9225 Y-1.3721
N4199 X0.9245 Y-1.3737
N4201 X0.9359 Y-1.3814
N4203 X0.9382 Y-1.3835
N4205 X0.9548 Y-1.4003
N4207 X0.9566 Y-1.4029
N4209 X0.9692 Y-1.4228
N4211 X0.9705 Y-1.4257
N4213 X0.9787 Y-1.4478
N4215 X0.9793 Y-1.4508
N4217 X0.9826 Y-1.4742
N4219 X0.9827 Y-1.4838
N4221 X0.9839 Y-1.4853
N4223 X0.9856 Y-1.4863
N4225 X0.9876
N4227 X1.1336 Y-1.4559
N4229 X1.1469 Y-1.4549
N4231 X1.1538 Y-1.4554
N4233 X1.1671 Y-1.4575
N4235 X1.1737 Y-1.4595
N4237 X1.186 Y-1.4647
N4239 X1.192 Y-1.4682
N4241 X1.1997 Y-1.4734
N4243 X1.2021 Y-1.4738
N4245 X1.2044 Y-1.4734
N4247 X1.2067 Y-1.4723
N4249 X1.2157 Y-1.4661
N4251 X1.2219 Y-1.4631
N4253 X1.2344 Y-1.4582
N4255 X1.2412 Y-1.4567
N4257 X1.2544 Y-1.455
N4259 X1.2613
N4261 X1.2762 Y-1.4567
N4263 X1.4187 Y-1.4862
N4265 X1.4205 Y-1.4853
N4267 X1.4217 Y-1.4838
N4269 X1.422 Y-1.4818
N4271 X1.4219 Y-1.4707
N4273 X1.4223 Y-1.4677
N4275 X1.4266 Y-1.4445
N4277 X1.4277 Y-1.4415
N4279 X1.4367 Y-1.4197
N4281 X1.4384 Y-1.4171
N4283 X1.4518 Y-1.3977
N4285 X1.4539 Y-1.3954
N4287 X1.4711 Y-1.3793
N4289 X1.4737 Y-1.3776
N4291 X1.4924 Y-1.3661
N4293 X1.614 Y-1.3061
N4295 X1.6148 Y-1.3043
N4297 Y-1.3023
N4299 X1.6139 Y-1.3005
N4301 X1.6055 Y-1.2898
N4303 X1.604 Y-1.287
N4305 X1.5932 Y-1.2651
N4307 X1.5923 Y-1.2621
N4309 X1.5866 Y-1.2384
N4311 X1.5863 Y-1.2352
N4313 X1.5851 Y-1.2146
N4315 X1.584 Y-1.2128
N4317 X1.5822 Y-1.2116
N4319 X1.5792 Y-1.211
N4321 X1.555 Y-1.2083
N4323 X1.5519 Y-1.2074
N4325 X1.5289 Y-1.1996
N4327 X1.5261 Y-1.1981
N4329 X1.5053 Y-1.1854
N4331 X1.4961 Y-1.1777
N4333 X1.4941 Y-1.1776
N4335 X1.4923 Y-1.1783
N4337 X1.491 Y-1.1798
N4339 X1.4347 Y-1.281
N4341 X1.4265 Y-1.2917
N4343 X1.421 Y-1.297
N4345 X1.4105 Y-1.3052
N4347 X1.4038 Y-1.3089
N4349 X1.3915 Y-1.3142
N4351 X1.3841 Y-1.316
N4353 X1.3708 Y-1.318
N4355 X1.3632 Y-1.3178
N4357 X1.3499 Y-1.3163
N4359 X1.3426 Y-1.3143
N4361 X1.3301 Y-1.3094
N4363 X1.3235 Y-1.3056
N4365 X1.3127 Y-1.2977
N4367 X1.3073 Y-1.2922
N4369 X1.2989 Y-1.2818
N4371 X1.2951 Y-1.2752
N4373 X1.2896 Y-1.263
N4375 X1.2876 Y-1.2557
N4377 X1.2854 Y-1.2425
N4379 X1.2853 Y-1.2349
N4381 X1.2869 Y-1.2199
N4383 X1.3326 Y-1.0005
N4385 X1.3318 Y-0.9988
N4387 X1.3302 Y-0.9976
N4389 X1.3282 Y-0.9972
N4391 X1.3079
N4393 X1.3051 Y-0.9968
N4395 X1.2836 Y-0.9925
N4397 X1.2809 Y-0.9916
N4399 X1.2606 Y-0.9832
N4401 X1.2582 Y-0.9817
N4403 X1.2399 Y-0.9696
N4405 X1.2378 Y-0.9677
N4407 X1.2223 Y-0.9522
N4409 X1.2206 Y-0.9499
N4411 X1.2084 Y-0.9317
N4413 X1.2035 Y-0.9218
N4415 X1.2022 Y-0.9214
N4417 X1.2008 Y-0.9218
N4419 X1.1999 Y-0.9229
N4421 X1.1944 Y-0.9345
N4423 X1.1929 Y-0.9369
N4425 X1.18 Y-0.9546
N4427 X1.178 Y-0.9567
N4429 X1.1619 Y-0.9716
N4431 X1.1595 Y-0.9732
N4433 X1.1409 Y-0.9847
N4435 X1.1382 Y-0.9858
N4437 X1.1177 Y-0.9934
N4439 X1.1149 Y-0.994
N4441 X1.0932 Y-0.9975
N4443 X1.0742
N4445 X1.0726 Y-0.9987
N4447 X1.0717 Y-1.0005
N4449 Y-1.0024
N4451 X1.1183 Y-1.2258
N4453 X1.1191 Y-1.2392
N4455 X1.1184 Y-1.2468
N4457 X1.1158 Y-1.2599
N4459 X1.1131 Y-1.2671
N4461 X1.1072 Y-1.2791
N4463 X1.1029 Y-1.2853
N4465 X1.0941 Y-1.2955
N4467 X1.0882 Y-1.3003
N4469 X1.0772 Y-1.3079
N4471 X1.0703 Y-1.3111
N4473 X1.0576 Y-1.3156
N4475 X1.0502 Y-1.317
N4477 X1.0368 Y-1.3181
N4479 X1.0292 Y-1.3175
N4481 X1.016 Y-1.3151
N4483 X1.0088 Y-1.3126
N4485 X0.9967 Y-1.3069
N4487 X0.9904 Y-1.3027
N4489 X0.9801 Y-1.2941
N4491 X0.9751 Y-1.2884
N4493 X0.9665 Y-1.276
N4495 X0.9121 Y-1.1783
N4497 X0.9102 Y-1.1776
N4499 X0.9083 Y-1.1777
N4501 X0.9065 Y-1.1787
N4503 X0.8962 Y-1.1875
N4505 X0.8935 Y-1.1892
N4507 X0.8722 Y-1.201
N4509 X0.8692 Y-1.2021
N4511 X0.8459 Y-1.209
N4513 X0.8427 Y-1.2094
N4515 X0.8221 Y-1.2116
N4517 X0.8204 Y-1.2128
N4519 X0.8192 Y-1.2146
N4521 X0.8188 Y-1.2177
N4523 X0.8173 Y-1.242
N4525 X0.8166 Y-1.2451
N4527 X0.8099 Y-1.2685
N4529 X0.8085 Y-1.2714
N4531 X0.7969 Y-1.2927
N4533 X0.7896 Y-1.3023
N4535 Y-1.3043
N4537 X0.7904 Y-1.3061
N4539 X0.7919 Y-1.3073
N4541 X0.915 Y-1.3678
N4543 X0.9169 Y-1.3693
N4545 X0.9183 Y-1.3713
N4547 X0.9191 Y-1.3736
N4549 X0.9192 Y-1.3763
N4551 X0.9183 Y-1.3883
N4553 X0.9189 Y-1.3905
N4555 X0.92 Y-1.3924
N4557 X0.9251 Y-1.3969
N4559 X0.9409 Y-1.4132
N4561 X0.953 Y-1.4325
N4563 X0.9608 Y-1.4538
N4565 X0.9639 Y-1.4764
N4567 X0.9622 Y-1.499
N4569 X0.9603 Y-1.5078
N4571 X0.9611 Y-1.5093
N4573 X0.9626 Y-1.5103
N4575 X0.9643 Y-1.5104
N4577 X1.1352 Y-1.4746
N4579 X1.1491 Y-1.4737
N4581 X1.1511 Y-1.4739
N4583 X1.1648 Y-1.4763
N4585 X1.1666 Y-1.4769
N4587 X1.1794 Y-1.4824
N4589 X1.1811 Y-1.4835
N4591 X1.1922 Y-1.4918
N4593 X1.2002 Y-1.5003
N4595 X1.2021 Y-1.5008
N4597 X1.204 Y-1.5004
N4599 X1.2057 Y-1.4991
N4601 X1.2139 Y-1.4902
N4603 X1.2155 Y-1.489
N4605 X1.227 Y-1.4813
N4607 X1.2289 Y-1.4805
N4609 X1.2419 Y-1.4756
N4611 X1.2439 Y-1.4753
N4613 X1.2576 Y-1.4736
N4615 X1.2596 Y-1.4737
N4617 X1.2723 Y-1.475
N4619 X1.4418 Y-1.5103
N4621 X1.4433 Y-1.5093
N4623 X1.4441 Y-1.5078
N4625 Y-1.5061
N4627 X1.4413 Y-1.4934
N4629 X1.4408 Y-1.4707
N4631 X1.4451 Y-1.4484
N4633 X1.454 Y-1.4275
N4635 X1.467 Y-1.4089
N4637 X1.4837 Y-1.3935
N4639 X1.5006 Y-1.383
N4641 X1.6469 Y-1.3108
N4643 X1.6475 Y-1.3091
N4645 X1.6472 Y-1.3074
N4647 X1.6462 Y-1.306
N4649 X1.6364 Y-1.2981
N4651 X1.6351 Y-1.2968
N4653 X1.6215 Y-1.28
N4655 X1.6206 Y-1.2784
N4657 X1.611 Y-1.2591
N4659 X1.6104 Y-1.2573
N4661 X1.6052 Y-1.2363
N4663 X1.605 Y-1.2345
N4665 X1.6045 Y-1.2129
N4667 X1.6047 Y-1.2111
N4669 X1.6077 Y-1.1925
N4671 X1.6069 Y-1.1911
N4673 X1.6055 Y-1.1902
N4675 X1.6037 Y-1.19
N4677 X1.5827 Y-1.1924
N4679 X1.5809 Y-1.1923
N4681 X1.5594 Y-1.1901
N4683 X1.5576 Y-1.1896
N4685 X1.5371 Y-1.1827
N4687 X1.5355 Y-1.1819
N4689 X1.517 Y-1.1708
N4691 X1.5156 Y-1.1696
N4693 X1.4999 Y-1.1547
N4695 X1.4925 Y-1.145
N4697 X1.4908 Y-1.1447
N4699 X1.4892 Y-1.1452
N4701 X1.488 Y-1.1465
N4703 X1.4196 Y-1.2699
N4705 X1.411 Y-1.2809
N4707 X1.4093 Y-1.2823
N4709 X1.3982 Y-1.2908
N4711 X1.3962 Y-1.2917
N4713 X1.3833 Y-1.2971
N4715 X1.3811 Y-1.2975
N4717 X1.3673 Y-1.2993
N4719 X1.3651 Y-1.2992
N4721 X1.3512 Y-1.2974
N4723 X1.3492 Y-1.2967
N4725 X1.3362 Y-1.2915
N4727 X1.3344 Y-1.2903
N4729 X1.3232 Y-1.2819
N4731 X1.3217 Y-1.2803
N4733 X1.3131 Y-1.2693
N4735 X1.3121 Y-1.2673
N4737 X1.3065 Y-1.2545
N4739 X1.306 Y-1.2524
N4741 X1.304 Y-1.2386
N4743 Y-1.2364
N4745 X1.3052 Y-1.2237
N4747 X1.357 Y-0.9758
N4749 X1.3561 Y-0.9743
N4751 X1.3546 Y-0.9736
N4753 X1.3529
N4755 X1.3502 Y-0.9744
N4757 X1.3295 Y-0.9784
N4759 X1.3084 Y-0.9783
N4761 X1.2877 Y-0.9741
N4763 X1.2683 Y-0.966
N4765 X1.2508 Y-0.9542
N4767 X1.236 Y-0.9392
N4769 X1.2243 Y-0.9216
N4771 X1.217 Y-0.9046
N4773 X1.2033 Y-0.8633
N4775 X1.2022 Y-0.863
N4777 X1.2011 Y-0.8633
N4779 X1.2004 Y-0.8642
N4781 X1.1864 Y-0.907
N4783 X1.1775 Y-0.9262
N4785 X1.165 Y-0.9432
N4787 X1.1494 Y-0.9574
N4789 X1.1314 Y-0.9683
N4791 X1.1116 Y-0.9755
N4793 X1.0907 Y-0.9787
N4795 X1.0697 Y-0.9778
N4797 X1.0498 Y-0.9736
N4799 X1.0483 Y-0.9743
N4801 X1.0474 Y-0.9758
N4803 X1.0473 Y-0.9774
N4805 X1.0996 Y-1.2272
N4807 X1.1003 Y-1.2412
N4809 X1.1 Y-1.2433
N4811 X1.097 Y-1.257
N4813 X1.0962 Y-1.259
N4815 X1.0899 Y-1.2715
N4817 X1.0885 Y-1.2732
N4819 X1.0792 Y-1.2837
N4821 X1.0775 Y-1.285
N4823 X1.0658 Y-1.2927
N4825 X1.0638 Y-1.2935
N4827 X1.0506 Y-1.298
N4829 X1.0484 Y-1.2983
N4831 X1.0345 Y-1.2992
N4833 X1.0323 Y-1.299
N4835 X1.0186 Y-1.2963
N4837 X1.0165 Y-1.2955
N4839 X1.0039 Y-1.2894
N4841 X1.0022 Y-1.2881
N4843 X0.9916 Y-1.279
N4845 X0.9903 Y-1.2773
N4847 X0.9829 Y-1.2669
N4849 X0.9152 Y-1.1452
N4851 X0.9135 Y-1.1447
N4853 X0.9118 Y-1.145
N4855 X0.9105 Y-1.1462
N4857 X0.9031 Y-1.1563
N4859 X0.9018 Y-1.1576
N4861 X0.8857 Y-1.172
N4863 X0.8841 Y-1.173
N4865 X0.8653 Y-1.1836
N4867 X0.8635 Y-1.1842
N4869 X0.8429 Y-1.1905
N4871 X0.841 Y-1.1907
N4873 X0.8195 Y-1.1924
N4875 X0.8177 Y-1.1922
N4877 X0.799 Y-1.1901
N4879 X0.7976 Y-1.191
N4881 X0.7967 Y-1.1924
N4883 X0.7966 Y-1.1942
N4885 X0.8001 Y-1.215
N4887 X0.8 Y-1.2169
N4889 X0.7989 Y-1.2385
N4891 X0.7985 Y-1.2403
N4893 X0.7926 Y-1.261
N4895 X0.7918 Y-1.2627
N4897 X0.7816 Y-1.2818
N4899 X0.7805 Y-1.2832
N4901 X0.7664 Y-1.2996
N4903 X0.7571 Y-1.3074
N4905 X0.7569 Y-1.3092
N4907 X0.7575 Y-1.3108
N4909 X0.7588 Y-1.3119
N4911 X0.9054 Y-1.3839
N4913 X0.9148 Y-1.3902
N4915 X0.9162 Y-1.3923
N4917 X0.9169 Y-1.3947
N4919 X0.917 Y-1.3972
N4921 X0.9156 Y-1.4103
N4923 X0.9162 Y-1.4128
N4925 X0.9173 Y-1.4152
N4927 X0.919 Y-1.4172
N4929 X0.925 Y-1.4232
N4931 X0.9354 Y-1.4389
N4933 X0.9422 Y-1.4564
N4935 X0.9451 Y-1.4749
N4937 X0.9441 Y-1.4937
N4939 X0.9392 Y-1.5118
N4941 X0.9308 Y-1.5282
N4943 X0.9272 Y-1.5345
N4945 X0.9277 Y-1.5358
N4947 X0.9287 Y-1.5366
N4949 X0.9301 Y-1.5367
N4951 X1.1366 Y-1.4933
N4953 X1.1483 Y-1.4924
N4955 X1.1591 Y-1.4944
N4957 X1.1697 Y-1.4987
N4959 X1.1789 Y-1.5054
N4961 X1.1864 Y-1.514
N4963 X1.192 Y-1.5246
N4965 X1.1946 Y-1.5358
N4967 X1.1947 Y-1.5461
N4969 X1.1843 Y-1.6491
N4971 X1.1854 Y-1.6509
N4973 X1.1871 Y-1.6521
N4975 X1.1891 Y-1.6526
N4977 X1.2173 Y-1.6521
N4979 X1.219 Y-1.6509
N4981 X1.22 Y-1.6491
N4983 X1.2203 Y-1.647
N4985 X1.2097 Y-1.5457
N4987 X1.21 Y-1.534
N4989 X1.213 Y-1.5229
N4991 X1.2184 Y-1.5134
N4993 X1.226 Y-1.5048
N4995 X1.2354 Y-1.4983
N4997 X1.2465 Y-1.4938
N4999 X1.2579 Y-1.4924
N5001 X1.2682 Y-1.4933
N5003 X1.4757 Y-1.5366
N5005 X1.4767 Y-1.5358
N5007 X1.4771 Y-1.5345
N5009 X1.4768 Y-1.5332
N5011 X1.4731 Y-1.5275
N5013 X1.4649 Y-1.5112
N5015 X1.4601 Y-1.493
N5017 X1.4593 Y-1.4742
N5019 X1.4624 Y-1.4557
N5021 X1.4693 Y-1.4383
N5023 X1.4798 Y-1.4227
N5025 X1.4933 Y-1.4096
N5027 X1.5089 Y-1.3998
N5029 X1.6898 Y-1.3107
N5031 X1.6901 Y-1.3094
N5033 X1.6897 Y-1.3081
N5035 X1.6886 Y-1.3073
N5037 X1.6822 Y-1.3051
N5039 X1.6652 Y-1.297
N5041 X1.6499 Y-1.2851
N5043 X1.6375 Y-1.2702
N5045 X1.6287 Y-1.253
N5047 X1.6238 Y-1.2342
N5049 X1.6231 Y-1.2149
N5051 X1.6266 Y-1.1958
N5053 X1.6339 Y-1.1783
N5055 X1.6466 Y-1.1546
N5057 X1.6462 Y-1.1536
N5059 X1.6452 Y-1.153
N5061 X1.6441 Y-1.1532
N5063 X1.6201 Y-1.1649
N5065 X1.6023 Y-1.1712
N5067 X1.5831 Y-1.1736
N5069 X1.5638 Y-1.1718
N5071 X1.5454 Y-1.1659
N5073 X1.5287 Y-1.1561
N5075 X1.5145 Y-1.1429
N5077 X1.5035 Y-1.127
N5079 X1.4963 Y-1.1094
N5081 X1.4939 Y-1.1026
N5083 X1.4927 Y-1.1021
N5085 X1.4913 Y-1.1023
N5087 X1.4904 Y-1.1033
N5089 X1.4047 Y-1.2585
N5091 X1.3978 Y-1.2671
N5093 X1.3901 Y-1.2737
N5095 X1.3886 Y-1.2746
N5097 X1.3782 Y-1.279
N5099 X1.367 Y-1.2805
N5101 X1.3557 Y-1.2792
N5103 X1.3459 Y-1.275
N5105 X1.3365 Y-1.2687
N5107 X1.3291 Y-1.2594
N5109 X1.3245 Y-1.2491
N5111 X1.3227 Y-1.2379
N5113 X1.3235 Y-1.2279
N5115 X1.382 Y-0.9479
N5117 X1.3811 Y-0.9465
N5119 X1.3796 Y-0.9457
N5121 X1.3779 Y-0.9458
N5123 X1.3462 Y-0.9561
N5125 X1.3296 Y-0.9597
N5127 X1.3121 Y-0.9599
N5129 X1.295 Y-0.9568
N5131 X1.2788 Y-0.9504
N5133 X1.2641 Y-0.941
N5135 X1.2516 Y-0.9288
N5137 X1.2417 Y-0.9145
N5139 X1.2349 Y-0.8988
N5141 X1.2033 Y-0.8027
N5143 X1.2022 Y-0.8023
N5145 X1.2011 Y-0.8027
N5147 X1.2004 Y-0.8036
N5149 X1.1692 Y-0.8995
N5151 X1.1624 Y-0.9151
N5153 X1.1523 Y-0.9293
N5155 X1.1397 Y-0.9414
N5157 X1.125 Y-0.9507
N5159 X1.1087 Y-0.957
N5161 X1.0916 Y-0.96
N5163 X1.0741 Y-0.9596
N5165 X1.0574 Y-0.9559
N5167 X1.0248 Y-0.9457
N5169 X1.0233 Y-0.9465
N5171 X1.0223 Y-0.9479
N5173 Y-0.9496
N5175 X1.0809 Y-1.2283
N5177 X1.0815 Y-1.2399
N5179 X1.0792 Y-1.251
N5181 X1.0742 Y-1.2611
N5183 X1.067 Y-1.269
N5185 X1.0589 Y-1.2751
N5187 X1.0573 Y-1.2759
N5189 X1.0466 Y-1.2796
N5191 X1.0354 Y-1.2805
N5193 X1.0242 Y-1.2784
N5195 X1.014 Y-1.2735
N5197 X1.006 Y-1.2665
N5199 X0.9993 Y-1.2579
N5201 X0.913 Y-1.1023
N5203 X0.9117 Y-1.1021
N5205 X0.9104 Y-1.1026
N5207 X0.9097 Y-1.1038
N5209 X0.9078 Y-1.1102
N5211 X0.9005 Y-1.1276
N5213 X0.8894 Y-1.1435
N5215 X0.8751 Y-1.1565
N5217 X0.8583 Y-1.1662
N5219 X0.8399 Y-1.172
N5221 X0.8206 Y-1.1736
N5223 X0.8014 Y-1.1711
N5225 X0.7835 Y-1.1646
N5227 X0.7592 Y-1.153
N5229 X0.7582 Y-1.1536
N5231 X0.7577 Y-1.1546
N5233 X0.7579 Y-1.1557
N5235 X0.7708 Y-1.1791
N5237 X0.778 Y-1.1965
N5239 X0.7813 Y-1.2156
N5241 X0.7804 Y-1.2349
N5243 X0.7754 Y-1.2536
N5245 X0.7664 Y-1.2708
N5247 X0.754 Y-1.2856
N5249 X0.7386 Y-1.2974
N5251 X0.7214 Y-1.3054
N5253 X0.7147 Y-1.3081
N5255 X0.7142 Y-1.3094
N5257 X0.7146 Y-1.3107
N5259 X0.7155 Y-1.3116
N5261 X0.8962 Y-1.4002
N5263 X0.9116 Y-1.41
N5265 X0.915 Y-1.4133
N5267 G3 X1.0597 Y-1.4629 Z-0.1616 I0.1323 J0.15 F6.92
N5269 G1 X1.2594 Y-1.4505 Z-0.0347 F8.0
N5271 Z0.0071 F15.0
N5273 X1.21 Y-0.9081
N5275 Z-0.006
N5277 Z-0.0347 F4.0
N5279 X1.1008 Y-1.0756 Z-0.1616 F8.0
N5281 G3 X1.0726 Y-1.226 Z-0.206 I0.1675 J-0.1092 F6.92
N5283 G1 X1.0732 Y-1.2292 F8.0
N5285 G2 X1.0504 Y-1.2706 R0.0362 F10.0
N5287 X1.006 Y-1.2542 R0.0362
N5289 G1 X0.909 Y-1.0784 F8.0
N5291 X0.9007 Y-1.1073
N5293 G2 X0.7869 Y-1.1577 R0.0812 F10.0
N5295 G1 X0.7367 Y-1.1331 F8.0
N5297 X0.7637 Y-1.182
N5299 G2 X0.7189 Y-1.2982 R0.0812 F10.0
N5301 G1 X0.6904 Y-1.3079 F8.0
N5303 X0.8921 Y-1.4067
N5305 G2 X0.9244 Y-1.524 R0.0812 F10.0
N5307 G1 X0.908 Y-1.5492 F8.0
N5309 X1.1375 Y-1.5009
N5311 G2 X1.187 Y-1.5456 R0.0412 F10.0
N5313 G1 X1.175 Y-1.6603 F8.0
N5315 X1.2294
N5317 X1.2173 Y-1.5456
N5319 G2 X1.2669 Y-1.5009 R0.0412 F10.0
N5321 G1 X1.4964 Y-1.5492 F8.0
N5323 X1.48 Y-1.524
N5325 G2 X1.5123 Y-1.4067 R0.0812 F10.0
N5327 G1 X1.7139 Y-1.3079 F8.0
N5329 X1.6855 Y-1.2982
N5331 G2 X1.6407 Y-1.182 R0.0812 F10.0
N5333 G1 X1.6677 Y-1.1331 F8.0
N5335 X1.6175 Y-1.1577
N5337 G2 X1.5037 Y-1.1073 R0.0812 F10.0
N5339 G1 X1.4953 Y-1.0784 F8.0
N5341 X1.3983 Y-1.2542
N5343 G2 X1.354 Y-1.2706 R0.0362 F10.0
N5345 X1.3311 Y-1.2292 R0.0362
N5347 G1 X1.3935 Y-0.9327 F8.0
N5349 X1.3446 Y-0.9486
N5351 G2 X1.2422 Y-0.8964 R0.0812 F10.0
N5353 G1 X1.2022 Y-0.7733 F8.0
N5355 X1.1622 Y-0.8964
N5357 G2 X1.0598 Y-0.9486 R0.0812 F10.0
N5359 G1 X1.0108 Y-0.9327 F8.0
N5361 X1.0726 Y-1.226
N5363 G3 X1.159 Y-1.3524 Z-0.1616 I0.1957 J0.0412 F6.92
N5365 G1 X1.3266 Y-1.4616 Z-0.0347 F8.0
N5367 G0 Z0.5
N5369 
N5371 G91 G28 Z0
N5373 M05
N5375 G28 X0 Y0
N5377 M30
%